; generated by PrusaSlicer 2.8.1+win64 on 2024-10-10 at 21:31:32 UTC

; 

; external perimeters extrusion width = 0.45mm
; perimeters extrusion width = 0.45mm
; infill extrusion width = 0.45mm
; solid infill extrusion width = 0.45mm
; top infill extrusion width = 0.40mm
; first layer extrusion width = 0.70mm

M104 S200 ; set temperature
;TYPE:Custom
G28 ; home all axes
G1 Z5 F5000 ; lift nozzle
M109 S200 ; set temperature and wait for it to be reached
G21 ; set units to millimeters
G90 ; use absolute coordinates
M82 ; use absolute distances for extrusion
G92 E0
; Filament gcode
M107
;LAYER_CHANGE
;Z:0.35
;HEIGHT:0.35
G1 E-2 F2400
G1 Z.35 F7800
G1 X85.825 Y85.547
G1 E0 F2400
;TYPE:Skirt/Brim
;WIDTH:0.7
G1 F1800
G1 X87.43 Y84.13 E.19468
G1 X89.021 Y82.992 E.37255
G1 X90.432 Y82.16 E.5215
G1 X92.333 Y81.264 E.7126
G1 X94.277 Y80.582 E.89993
G1 X96.242 Y80.107 E1.08375
G1 X98.244 Y79.832 E1.2675
G1 X100.218 Y79.757 E1.44712
G1 X101.863 Y79.842 E1.5969
G1 X103.915 Y80.138 E1.78542
G1 X105.913 Y80.639 E1.97272
G1 X107.902 Y81.362 E2.16516
G1 X109.731 Y82.248 E2.34996
G1 X111.454 Y83.307 E2.53386
G1 X113.09 Y84.557 E2.72107
G1 X114.538 Y85.912 E2.90139
G1 X115.623 Y87.126 E3.04944
G1 X116.858 Y88.792 E3.23801
G1 X117.897 Y90.538 E3.42276
G1 X118.747 Y92.358 E3.60541
G1 X119.449 Y94.381 E3.80012
G1 X119.892 Y96.244 E3.97425
G1 X120.172 Y98.299 E4.16284
G1 X120.243 Y99.964 E4.31438
G1 X120.142 Y102.025 E4.50201
G1 X119.833 Y104.059 E4.68908
G1 X119.329 Y106.017 E4.87292
G1 X118.671 Y107.822 E5.04761
G1 X117.967 Y109.326 E5.19861
G1 X116.919 Y111.115 E5.38714
G1 X115.693 Y112.788 E5.57574
G1 X114.354 Y114.275 E5.75769
G1 X112.747 Y115.726 E5.95457
G1 X111.107 Y116.924 E6.13924
G1 X109.365 Y117.948 E6.32298
G1 X107.596 Y118.764 E6.50012
G1 X106.032 Y119.324 E6.65118
G1 X104.023 Y119.839 E6.83976
G1 X101.973 Y120.147 E7.02826
G1 X99.968 Y120.244 E7.21079
G1 X97.83 Y120.127 E7.40549
G1 X95.833 Y119.81 E7.58935
G1 X93.842 Y119.284 E7.7766
G1 X91.997 Y118.594 E7.95571
G1 X90.146 Y117.683 E8.1433
G1 X88.748 Y116.828 E8.29231
G1 X87.107 Y115.607 E8.4783
G1 X85.624 Y114.253 E8.6609
G1 X84.199 Y112.654 E8.85566
G1 X83.081 Y111.116 E9.02855
G1 X82.033 Y109.326 E9.21716
G1 X81.327 Y107.817 E9.36865
G1 X80.628 Y105.876 E9.55624
G1 X80.129 Y103.865 E9.74464
G1 X79.842 Y101.864 E9.92845
G1 X79.756 Y99.858 E10.11102
G1 X79.884 Y97.721 E10.30568
G1 X80.193 Y95.816 E10.48116
G1 X80.725 Y93.812 E10.66969
G1 X81.299 Y92.248 E10.82118
G1 X82.185 Y90.385 E11.00876
G1 X83.246 Y88.636 E11.19477
G1 X84.462 Y87.022 E11.37852
G1 X85.784 Y85.591 E11.55567
G1 E9.55567 F2400
G92 E0
G1 X85.784 Y85.591 F7800
G92 E0
G1 X95.551 Y100.271
G1 E2 F2400
;TYPE:Perimeter
;WIDTH:0.7
G1 F1800
G1 X95.53 Y99.904 E2.03343
G1 X95.604 Y99.185 E2.09915
G1 X95.781 Y98.562 E2.15804
G1 X95.926 Y98.153 E2.1975
G1 X96.182 Y97.666 E2.24753
G1 X96.798 Y96.879 E2.33841
G1 X97.343 Y96.403 E2.40421
G1 X97.94 Y96.045 E2.46751
G1 X98.307 Y95.861 E2.50484
G1 X98.997 Y95.643 E2.57064
G1 X99.624 Y95.558 E2.62817
G1 X100.054 Y95.527 E2.66737
G1 X100.544 Y95.56 E2.71203
G1 X101.407 Y95.756 E2.7925
G1 X102.24 Y96.13 E2.87553
G1 X102.974 Y96.676 E2.95871
;WIDTH:0.720315
G1 X103.605 Y97.337 E3.04451
G1 X104.062 Y98.131 E3.13052
;WIDTH:0.7
G1 X104.357 Y98.997 E3.21371
G1 X104.444 Y99.651 E3.2737
G1 X104.47 Y100.095 E3.31414
G1 X104.396 Y100.815 E3.37995
G1 X104.17 Y101.593 E3.45362
G1 X104.061 Y101.869 E3.4806
G1 X103.707 Y102.499 E3.54631
G1 X103.384 Y102.9 E3.59313
G1 X103.046 Y103.277 E3.63917
G1 X102.405 Y103.769 E3.71265
G1 X101.915 Y104.024 E3.76288
G1 X101.447 Y104.232 E3.80945
G1 X100.938 Y104.375 E3.85752
G1 X99.936 Y104.472 E3.94906
G1 X99.424 Y104.437 E3.99572
G1 X98.593 Y104.243 E4.07331
G1 X97.759 Y103.868 E4.15646
G1 X97.025 Y103.322 E4.23964
;WIDTH:0.72025
G1 X96.396 Y102.662 E4.32523
G1 X95.939 Y101.869 E4.41115
;WIDTH:0.7
G1 X95.643 Y101.003 E4.49437
G1 X95.556 Y100.348 E4.55445
G1 X95.555 Y100.331 E4.556
G1 X96.181 Y100.249 F7800
;TYPE:External perimeter
G1 F1800
G1 X96.152 Y99.968 E4.58169
G1 X96.225 Y99.249 E4.6474
G1 X96.481 Y98.441 E4.72447
G1 X96.712 Y97.997 E4.76998
G1 X97.165 Y97.397 E4.83834
G1 X97.754 Y96.874 E4.90996
G1 X98.247 Y96.59 E4.96169
G1 X98.648 Y96.409 E5.0017
G1 X99.19 Y96.237 E5.05341
G1 X100.012 Y96.15 E5.12857
G1 X100.502 Y96.183 E5.17323
G1 X101.259 Y96.363 E5.24398
G1 X101.972 Y96.694 E5.31546
G1 X102.603 Y97.165 E5.38706
G1 X103.126 Y97.755 E5.45875
G1 X103.517 Y98.438 E5.53031
G1 X103.762 Y99.186 E5.60188
G1 X103.848 Y100.031 E5.67911
G1 X103.774 Y100.751 E5.74492
G1 X103.574 Y101.404 E5.80702
G1 X103.351 Y101.858 E5.85301
G1 X103.098 Y102.276 E5.89744
G1 X102.651 Y102.79 E5.95938
G1 X102.027 Y103.271 E6.03102
G1 X101.327 Y103.612 E6.10182
G1 X100.805 Y103.764 E6.15126
G1 X100.194 Y103.831 E6.20715
G1 X99.497 Y103.816 E6.27054
G1 X98.741 Y103.636 E6.3412
G1 X98.027 Y103.304 E6.4128
G1 X97.396 Y102.833 E6.4844
G1 X96.874 Y102.245 E6.5559
G1 X96.483 Y101.563 E6.62738
G1 X96.239 Y100.814 E6.69901
G1 X96.187 Y100.309 E6.74517
G1 X96.166 Y99.909 F7800
G1 E4.74517 F2400
G92 E0
G1 X108.57 Y89.383 F7800
G1 E2 F2400
;WIDTH:0.560845
G1 F1800
G1 X108.773 Y89.525 E2.01751
;WIDTH:0.513096
G1 X108.975 Y89.666 E2.03321
;WIDTH:0.465347
G1 X109.177 Y89.807 E2.0472
;WIDTH:0.417599
G1 X109.564 Y90.144 E2.07277
;WIDTH:0.415111
G1 X109.91 Y90.494 E2.09712
;WIDTH:0.429333
G1 X110.247 Y90.892 E2.124
;WIDTH:0.434599
G1 X110.268 Y90.92 E2.12583
G1 X109.979 Y90.644 F7800
G1 E.12583 F2400
G92 E0
G1 X91.433 Y110.619 F7800
G1 E2 F2400
;WIDTH:0.564319
G1 F1800
G1 X91.229 Y110.477 E2.01769
;WIDTH:0.515657
G1 X91.026 Y110.335 E2.03357
;WIDTH:0.466996
G1 X90.823 Y110.193 E2.0477
;WIDTH:0.418335
G1 X90.25 Y109.684 E2.08598
;WIDTH:0.432513
G1 X89.751 Y109.108 E2.12561
;WIDTH:0.438409
G1 X89.73 Y109.08 E2.12746
G1 X90.02 Y109.356 F7800
G1 E.12746 F2400
G92 E0
G1 X97.946 Y104.649 F7800
G1 E2 F2400
;TYPE:Perimeter
;WIDTH:0.7
G1 F1800
G1 X98.445 Y104.85 E2.04892
G1 X99.362 Y105.059 E2.13444
G1 X99.893 Y105.096 E2.18284
G1 X100.322 Y105.074 E2.2219
G1 X101.145 Y104.967 E2.29736
G1 X101.725 Y104.799 E2.35227
G1 X102.184 Y104.588 E2.39821
G1 X102.783 Y104.266 E2.46005
G1 X103.359 Y103.829 E2.52579
G1 X103.672 Y103.521 E2.56572
G1 X104.172 Y102.932 E2.63597
G1 X104.44 Y102.47 E2.68454
G1 X104.733 Y101.882 E2.74428
G1 X104.953 Y101.192 E2.81013
G1 X105.018 Y100.879 E2.8392
G1 X105.092 Y100.159 E2.90501
G1 X105.066 Y99.587 E2.95708
G1 X104.953 Y98.808 E3.02866
G1 X104.672 Y97.963 E3.10963
G1 X104.884 Y98.056 E3.13068
G1 X105.837 Y98.347 E3.22129
G1 X106.549 Y98.442 E3.28661
G1 X107.282 Y98.442 E3.35326
G1 X107.807 Y98.369 E3.40146
G1 X108.419 Y98.245 E3.45824
G1 X108.953 Y98.039 E3.51028
G1 X109.533 Y97.773 E3.5683
G1 X110.147 Y97.373 E3.63493
G1 X110.61 Y96.964 E3.6911
G1 X111.102 Y96.447 E3.756
G1 X111.571 Y95.756 E3.83194
G1 X111.708 Y96.131 E3.86824
G1 X111.934 Y96.956 E3.94602
G1 X112.133 Y97.794 E4.02434
G1 X112.293 Y99.031 E4.13776
G1 X112.323 Y100.416 E4.26373
G1 X112.233 Y101.55 E4.36717
G1 X112.084 Y102.454 E4.45048
G1 X111.899 Y103.234 E4.52337
G1 X111.639 Y104.071 E4.60307
G1 X111.369 Y104.768 E4.67104
G1 X111.162 Y105.241 E4.71799
G1 X110.827 Y105.897 E4.78497
G1 X110.569 Y106.352 E4.83253
G1 X110.104 Y107.069 E4.91024
G1 X109.693 Y107.617 E4.97253
G1 X109.038 Y108.389 E5.06459
G1 X108.521 Y108.91 E5.13133
G1 X108.145 Y109.258 E5.17792
G1 X107.515 Y109.775 E5.25203
G1 X106.769 Y110.306 E5.33529
G1 X106.085 Y110.724 E5.40818
G1 X105.307 Y111.13 E5.48798
G1 X104.622 Y111.429 E5.55594
G1 X104.141 Y111.615 E5.60283
G1 X103.439 Y111.839 E5.66983
G1 X102.934 Y111.977 E5.71743
G1 X102.245 Y112.121 E5.78143
G1 X101.164 Y112.273 E5.88069
G1 X100.351 Y112.325 E5.95477
G1 X99.662 Y112.32 E6.01742
G1 X98.916 Y112.282 E6.08534
G1 X98.294 Y112.212 E6.14226
G1 X97.489 Y112.072 E6.21656
G1 X96.793 Y111.903 E6.28169
G1 X96.247 Y111.746 E6.33335
G1 X95.754 Y111.57 E6.38095
G1 X96.552 Y111.015 E6.46934
G1 X97.078 Y110.505 E6.53596
G1 X97.387 Y110.111 E6.58149
G1 X97.838 Y109.413 E6.65705
G1 X98.134 Y108.743 E6.72365
G1 X98.306 Y108.114 E6.78294
G1 X98.424 Y107.525 E6.83756
G1 X98.457 Y107.014 E6.88412
G1 X98.436 Y106.594 E6.92236
G1 X98.325 Y105.739 E7.00076
G1 X98.152 Y105.158 E7.05588
G1 X97.969 Y104.705 E7.10031
G1 E5.10031 F2400
G92 E0
G1 X97.969 Y104.705 F7800
G1 X94.928 Y100.292
G1 E2 F2400
G1 F1800
G1 X94.934 Y100.412 E2.01093
G1 X95.047 Y101.192 E2.0826
G1 X95.328 Y102.036 E2.16349
G1 X95.116 Y101.943 E2.18454
G1 X94.164 Y101.652 E2.27506
G1 X93.502 Y101.558 E2.33586
G1 X92.77 Y101.554 E2.40242
G1 X92.043 Y101.647 E2.46906
G1 X91.6 Y101.763 E2.5107
G1 X90.916 Y101.997 E2.57643
G1 X90.475 Y102.236 E2.62204
G1 X89.895 Y102.595 E2.68406
G1 X89.496 Y102.934 E2.73167
G1 X89.128 Y103.285 E2.77791
G1 X88.67 Y103.858 E2.84461
G1 X88.429 Y104.258 E2.88707
G1 X88.111 Y103.272 E2.98127
G1 X87.901 Y102.38 E3.0646
G1 X87.811 Y101.83 E3.11528
G1 X87.732 Y101.161 E3.17653
G1 X87.68 Y100.302 E3.25478
G1 X87.681 Y99.453 E3.33198
G1 X87.744 Y98.638 E3.40631
G1 X87.855 Y97.88 E3.47597
G1 X87.952 Y97.371 E3.52309
G1 X88.266 Y96.21 E3.63245
G1 X88.431 Y95.73 E3.6786
G1 X88.708 Y95.051 E3.74528
G1 X88.921 Y94.584 E3.79195
G1 X89.304 Y93.865 E3.86603
G1 X89.789 Y93.088 E3.94932
G1 X90.259 Y92.439 E4.02218
G1 X90.821 Y91.765 E4.10198
G1 X91.404 Y91.158 E4.17851
G1 X91.78 Y90.811 E4.22503
G1 X92.418 Y90.276 E4.30074
G1 X92.999 Y89.857 E4.36588
G1 X93.582 Y89.476 E4.42921
G1 X94.426 Y89.001 E4.51727
G1 X94.882 Y88.78 E4.56335
G1 X95.56 Y88.498 E4.63012
G1 X96.04 Y88.321 E4.67664
G1 X96.735 Y88.112 E4.74263
G1 X97.274 Y87.982 E4.79305
G1 X97.826 Y87.865 E4.84436
G1 X98.596 Y87.749 E4.91517
G1 X99.127 Y87.704 E4.96363
G1 X100.198 Y87.67 E5.06106
G1 X100.863 Y87.703 E5.1216
G1 X101.468 Y87.756 E5.17682
G1 X102.71 Y87.971 E5.29143
G1 X103.583 Y88.201 E5.37352
G1 X104.261 Y88.431 E5.43862
G1 X103.704 Y88.783 E5.49853
G1 X102.957 Y89.456 E5.58996
G1 X102.336 Y90.28 E5.68378
G1 X101.964 Y90.996 E5.75715
G1 X101.773 Y91.581 E5.81311
G1 X101.618 Y92.205 E5.87157
G1 X101.547 Y92.934 E5.93817
G1 X101.562 Y93.392 E5.97984
G1 X101.675 Y94.26 E6.05943
G1 X101.848 Y94.84 E6.11447
G1 X102.054 Y95.35 E6.16448
G1 X101.555 Y95.148 E6.21343
G1 X100.638 Y94.94 E6.29893
G1 X100.095 Y94.903 E6.34842
G1 X99.559 Y94.936 E6.39725
G1 X98.808 Y95.047 E6.46628
G1 X98.097 Y95.273 E6.53412
G1 X97.634 Y95.501 E6.58105
G1 X96.933 Y95.933 E6.65592
G1 X96.37 Y96.424 E6.72385
G1 X96.008 Y96.855 E6.77503
G1 X95.59 Y97.443 E6.84063
G1 X95.267 Y98.115 E6.90843
G1 X95.047 Y98.808 E6.97454
G1 X94.963 Y99.306 E7.02046
G1 X94.906 Y99.866 E7.07164
G1 X94.925 Y100.232 E7.10497
G1 E5.10497 F2400
G92 E0
G1 X94.925 Y100.232 F7800
G1 X106.378 Y111.277
G1 E2 F2400
G1 F1800
G1 X105.577 Y111.694 E2.08211
G1 X104.872 Y112.002 E2.15207
G1 X104.346 Y112.205 E2.20334
G1 X103.629 Y112.434 E2.27178
G1 X103.077 Y112.585 E2.32382
G1 X102.373 Y112.733 E2.38923
G1 X101.207 Y112.896 E2.49628
G1 X100.362 Y112.95 E2.57327
G1 X99.641 Y112.944 E2.63883
G1 X98.711 Y112.891 E2.72353
G1 X98.203 Y112.831 E2.77004
G1 X97.361 Y112.684 E2.84776
G1 X96.645 Y112.51 E2.91476
G1 X96.052 Y112.34 E2.97085
G1 X94.822 Y111.877 E3.09035
G1 X94.109 Y111.536 E3.16222
G1 X94.351 Y111.489 E3.18464
G1 X94.832 Y111.313 E3.23121
G1 X95.362 Y111.079 E3.28389
G1 X96.117 Y110.566 E3.36689
G1 X96.609 Y110.089 E3.4292
G1 X96.874 Y109.754 E3.46804
G1 X97.266 Y109.161 E3.53268
G1 X97.562 Y108.49 E3.59937
G1 X97.697 Y107.976 E3.64769
G1 X97.801 Y107.474 E3.69431
G1 X97.833 Y106.974 E3.73987
G1 X97.814 Y106.654 E3.76902
G1 X97.726 Y105.917 E3.83651
G1 X97.449 Y105.048 E3.91945
G1 X97.012 Y104.248 E4.00234
G1 X96.42 Y103.557 E4.08508
;WIDTH:0.72025
G1 X95.944 Y103.12 E4.14574
G1 X95.724 Y102.967 E4.1709
;WIDTH:0.70288
G1 X94.919 Y102.537 E4.25427
;WIDTH:0.7
G1 X94.064 Y102.269 E4.33574
G1 X93.482 Y102.183 E4.38924
G1 X92.849 Y102.174 E4.4468
G1 X92.122 Y102.267 E4.51344
G1 X91.233 Y102.543 E4.59808
G1 X90.781 Y102.781 E4.64453
G1 X90.3 Y103.071 E4.6956
G1 X89.616 Y103.675 E4.77857
G1 X89.159 Y104.248 E4.84521
G1 X88.884 Y104.736 E4.89614
G1 X88.653 Y105.215 E4.9445
G1 X88.455 Y105.881 E5.00768
G1 X88.056 Y105.017 E5.09422
G1 X87.76 Y104.25 E5.16898
G1 X87.508 Y103.436 E5.24646
G1 X87.288 Y102.502 E5.33371
G1 X87.152 Y101.669 E5.41046
G1 X87.066 Y100.753 E5.49412
G1 X87.046 Y99.95 E5.56716
G1 X87.057 Y99.42 E5.61536
G1 X87.123 Y98.568 E5.69306
G1 X87.236 Y97.79 E5.76455
G1 X87.342 Y97.233 E5.81611
G1 X87.669 Y96.026 E5.92982
G1 X87.847 Y95.509 E5.97954
G1 X88.129 Y94.815 E6.04766
G1 X88.362 Y94.305 E6.09864
G1 X88.762 Y93.552 E6.17617
G1 X89.27 Y92.738 E6.26342
G1 X89.765 Y92.055 E6.34012
G1 X90.355 Y91.348 E6.42385
G1 X90.887 Y90.794 E6.49369
G1 X91.295 Y90.403 E6.54507
G1 X92.231 Y89.632 E6.65534
G1 X93.265 Y88.938 E6.76858
G1 X94.136 Y88.447 E6.8595
G1 X94.628 Y88.209 E6.9092
G1 X95.32 Y87.921 E6.97736
G1 X95.845 Y87.727 E7.02825
G1 X96.697 Y87.471 E7.10914
G1 X97.596 Y87.268 E7.19294
G1 X98.347 Y87.152 E7.26204
G1 X98.9 Y87.09 E7.31264
G1 X99.686 Y87.049 E7.38421
G1 X100.213 Y87.045 E7.43213
G1 X101.041 Y87.087 E7.50752
G1 X101.553 Y87.136 E7.55429
G1 X102.478 Y87.296 E7.63965
G1 X103.048 Y87.414 E7.69258
G1 X103.819 Y87.621 E7.76517
G1 X104.584 Y87.881 E7.83864
G1 X105.114 Y88.099 E7.89075
G1 X105.876 Y88.454 E7.96719
G1 X105.081 Y88.707 E8.04305
G1 X104.654 Y88.927 E8.08673
G1 X104.109 Y89.259 E8.14476
G1 X103.445 Y89.846 E8.22535
G1 X102.89 Y90.569 E8.30823
G1 X102.531 Y91.258 E8.37887
G1 X102.372 Y91.759 E8.42666
G1 X102.24 Y92.265 E8.47421
G1 X102.169 Y92.995 E8.5409
G1 X102.184 Y93.332 E8.57157
G1 X102.274 Y94.082 E8.64026
G1 X102.551 Y94.951 E8.7232
G1 X102.988 Y95.751 E8.80609
G1 X103.58 Y96.443 E8.8889
;WIDTH:0.720315
G1 X104.057 Y96.88 E8.94964
G1 X104.276 Y97.033 E8.97472
;WIDTH:0.705049
G1 X105.081 Y97.462 E9.05833
;WIDTH:0.7
G1 X105.937 Y97.73 E9.13989
G1 X106.549 Y97.817 E9.1961
G1 X107.282 Y97.817 E9.26275
G1 X108.252 Y97.643 E9.35236
G1 X109.192 Y97.249 E9.44504
G1 X109.806 Y96.849 E9.51167
G1 X110.175 Y96.515 E9.55693
G1 X110.589 Y96.089 E9.61094
G1 X111.096 Y95.331 E9.69386
G1 X111.392 Y94.661 E9.76046
G1 X111.535 Y94.11 E9.81222
G1 X111.8 Y94.653 E9.86716
G1 X112.003 Y95.121 E9.91355
G1 X112.304 Y95.941 E9.99298
G1 X112.646 Y97.191 E10.11082
G1 X112.749 Y97.687 E10.15688
G1 X112.866 Y98.486 E10.23031
G1 X112.917 Y98.993 E10.27664
G1 X112.948 Y100.443 E10.40852
G1 X112.853 Y101.63 E10.5168
G1 X112.697 Y102.577 E10.60407
G1 X112.503 Y103.398 E10.68078
G1 X112.23 Y104.277 E10.76447
G1 X111.952 Y104.994 E10.8344
G1 X111.726 Y105.511 E10.88571
G1 X111.383 Y106.181 E10.95415
G1 X111.102 Y106.679 E11.00614
G1 X110.616 Y107.427 E11.08725
G1 X109.855 Y108.409 E11.20022
G1 X109.492 Y108.818 E11.24995
G1 X108.965 Y109.35 E11.31804
G1 X108.554 Y109.731 E11.369
G1 X107.895 Y110.272 E11.44653
G1 X107.114 Y110.828 E11.5337
G1 X106.43 Y111.246 E11.60659
G1 X106.43 Y111.246 F7800
G1 X106.696 Y111.816
;TYPE:External perimeter
G1 F1800
G1 X105.847 Y112.258 E11.69362
G1 X105.122 Y112.574 E11.76553
G1 X104.551 Y112.796 E11.82124
G1 X103.819 Y113.03 E11.89112
G1 X103.221 Y113.194 E11.9475
G1 X102.35 Y113.376 E12.02841
G1 X101.395 Y113.509 E12.11609
G1 X100.565 Y113.567 E12.19175
G1 X99.984 Y113.581 E12.2446
G1 X99.172 Y113.553 E12.31848
G1 X98.111 Y113.449 E12.41542
G1 X97.233 Y113.296 E12.49646
G1 X96.375 Y113.087 E12.57676
G1 X95.857 Y112.934 E12.62587
G1 X95.041 Y112.643 E12.70465
G1 X94.568 Y112.448 E12.75117
G1 X93.75 Y112.057 E12.83361
G1 X93.303 Y111.816 E12.87979
G1 X92.548 Y111.336 E12.96114
G1 X91.802 Y110.816 E13.04383
G1 X92.215 Y110.945 E13.08317
G1 X92.719 Y111.022 E13.12953
G1 X93.512 Y111.016 E13.20164
G1 X94.289 Y110.859 E13.27372
G1 X95.021 Y110.555 E13.34579
G1 X95.682 Y110.118 E13.41784
G1 X96.247 Y109.562 E13.48992
G1 X96.578 Y109.086 E13.54264
G1 X96.806 Y108.656 E13.5869
G1 X97.009 Y108.181 E13.63387
G1 X97.179 Y107.417 E13.70504
G1 X97.192 Y106.714 E13.76897
G1 X97.127 Y106.095 E13.82556
G1 X96.895 Y105.337 E13.89764
G1 X96.523 Y104.638 E13.96964
G1 X96.024 Y104.022 E14.04172
G1 X95.417 Y103.513 E14.11375
G1 X94.723 Y103.13 E14.18583
G1 X93.965 Y102.886 E14.25824
