; generated by PrusaSlicer 2.8.1+win64 on 2024-10-10 at 21:32:08 UTC

; 

; external perimeters extrusion width = 0.45mm
; perimeters extrusion width = 0.45mm
; infill extrusion width = 0.45mm
; solid infill extrusion width = 0.45mm
; top infill extrusion width = 0.40mm
; first layer extrusion width = 0.70mm

M104 S200 ; set temperature
;TYPE:Custom
G28 ; home all axes
G1 Z5 F5000 ; lift nozzle
M109 S200 ; set temperature and wait for it to be reached
G21 ; set units to millimeters
G90 ; use absolute coordinates
M82 ; use absolute distances for extrusion
G92 E0
; Filament gcode
M107
;LAYER_CHANGE
;Z:0.35
;HEIGHT:0.35
G1 E-2 F2400
G1 Z.35 F7800
G1 X81.295 Y59.993
G1 E0 F2400
;TYPE:Skirt/Brim
;WIDTH:0.7
G1 F1800
G1 X81.943 Y59.12 E.09886
G1 X82.896 Y58.167 E.22141
G1 X83.768 Y57.519 E.3202
G1 X84.718 Y56.991 E.41903
G1 X85.481 Y56.675 E.49412
G1 X86.526 Y56.377 E.59293
G1 X88.24 Y56.188 E.74973
G1 X111.275 Y56.188 E2.84429
G1 X113.434 Y56.568 E3.04362
G1 X115.884 Y57.46 E3.2807
G1 X117.818 Y58.586 E3.48419
G1 X119.238 Y60.317 E3.68777
G1 X120.037 Y63.392 E3.97666
G1 X120.037 Y134.982 E10.48631
G1 X119.64 Y137.184 E10.68977
G1 X118.25 Y139.383 E10.92632
G1 X115.8 Y141.901 E11.24578
G1 X113.98 Y143.204 E11.44931
G1 X111.275 Y143.812 E11.70141
G1 X110.875 Y143.812 E11.73778
G1 X108.672 Y143.416 E11.94131
G1 X106.747 Y142.275 E12.14479
G1 X105.099 Y140.046 E12.39685
G1 X102.436 Y133.997 E12.99782
G1 X88.436 Y99.897 E16.34967
G1 X80.363 Y76.038 E18.63999
G1 X80.152 Y75.249 E18.71425
G1 X79.963 Y73.509 E18.8734
G1 X79.963 Y64.5 E19.69258
G1 X80.101 Y63.007 E19.82892
G1 X80.45 Y61.706 E19.9514
G1 X80.882 Y60.708 E20.05028
G1 X81.265 Y60.045 E20.1199
G1 E18.1199 F2400
G92 E0
G1 X81.265 Y60.045 F7800
G92 E0
G1 X91.409 Y65.958
G1 E2 F2400
;TYPE:Perimeter
;WIDTH:0.7
G1 F1800
G1 X91.509 Y66.001 E2.0099
G1 X91.961 Y66.281 E2.05825
G1 X92.168 Y66.454 E2.08278
G1 X92.522 Y66.851 E2.13115
G1 X92.67 Y67.076 E2.15564
G1 X92.896 Y67.556 E2.20388
G1 X93.051 Y68.243 E2.26792
G1 X93.06 Y68.501 E2.29139
G1 X93.003 Y69.065 E2.34294
G1 X92.938 Y69.325 E2.36731
G1 X92.7 Y69.888 E2.42289
G1 X92.312 Y70.398 E2.48116
G1 X92.104 Y70.604 E2.50778
G1 X91.474 Y71.016 E2.57623
G1 X90.975 Y71.198 E2.62453
G1 X90.721 Y71.252 E2.64814
G1 X90.16 Y71.29 E2.69927
G1 X89.45 Y71.162 E2.76487
G1 X89.196 Y71.07 E2.78943
G1 X88.729 Y70.818 E2.83768
G1 X88.165 Y70.322 E2.90597
G1 X87.74 Y69.657 E2.97773
G1 X87.642 Y69.416 E3.00139
G1 X87.626 Y69.25 E3.01655
;WIDTH:0.650903
G1 X87.61 Y69.084 E3.03052
;WIDTH:0.601806
G1 X87.593 Y68.918 E3.04331
;WIDTH:0.552709
G1 X87.589 Y68.708 E3.05791
;WIDTH:0.517591
G1 X87.601 Y68.152 E3.09372
;WIDTH:0.565069
G1 X87.593 Y68.065 E3.09995
;WIDTH:0.612547
G1 X87.584 Y67.977 E3.10687
;WIDTH:0.660025
G1 X87.576 Y67.89 E3.11431
;WIDTH:0.7
G1 X87.724 Y67.379 E3.16268
G1 X88.114 Y66.738 E3.23091
G1 X88.695 Y66.204 E3.30266
G1 X89.367 Y65.864 E3.37114
G1 X89.615 Y65.792 E3.39462
G1 X90.14 Y65.716 E3.44286
G1 X90.57 Y65.725 E3.48197
G1 X91.262 Y65.894 E3.54674
G1 X91.354 Y65.934 E3.55586
G1 X91.354 Y65.934 F7800
G1 X91.145 Y66.525
;TYPE:External perimeter
G1 F1800
G1 X91.633 Y66.812 E3.60734
G1 X92.055 Y67.267 E3.66377
G1 X92.331 Y67.822 E3.72013
G1 X92.435 Y68.352 E3.76924
G1 X92.381 Y69.002 E3.82855
G1 X92.172 Y69.546 E3.88154
G1 X91.822 Y70.01 E3.93439
G1 X91.337 Y70.388 E3.9903
G1 X90.761 Y70.611 E4.04646
G1 X90.183 Y70.664 E4.09924
G1 X89.577 Y70.55 E4.15531
G1 X89.025 Y70.268 E4.21167
G1 X88.6 Y69.873 E4.26443
G1 X88.281 Y69.345 E4.32052
G1 X88.119 Y68.708 E4.38029
G1 X88.135 Y68.168 E4.42941
G1 X88.317 Y67.575 E4.48581
G1 X88.632 Y67.088 E4.53855
G1 X89.097 Y66.683 E4.59462
G1 X89.622 Y66.435 E4.64742
G1 X90.23 Y66.334 E4.70346
G1 X90.586 Y66.358 E4.7359
G1 X91.093 Y66.496 E4.78368
G1 X91.438 Y66.698 F7800
G1 X91.671 Y65.397
;TYPE:Perimeter
G1 F1800
G1 X91.425 Y65.291 E4.80804
;WIDTH:0.744583
G1 X91.329 Y65.241 E4.81858
;WIDTH:0.789167
G1 X91.232 Y65.192 E4.82987
;WIDTH:0.833751
G1 X91.136 Y65.143 E4.84177
;WIDTH:0.878335
G1 X91.039 Y65.094 E4.85447
;WIDTH:0.922919
G1 X90.942 Y65.044 E4.86793
G1 X90.62 Y65.007 E4.90792
;WIDTH:0.889094
G1 X90.037 Y65.004 E4.97697
;WIDTH:0.927513
G1 X89.508 Y65.062 E5.04298
G1 X89.429 Y65.108 E5.05432
;WIDTH:0.88201
G1 X89.35 Y65.154 E5.06505
;WIDTH:0.836507
G1 X89.271 Y65.201 E5.07523
;WIDTH:0.791005
G1 X89.191 Y65.247 E5.08484
;WIDTH:0.745502
G1 X89.112 Y65.294 E5.09381
;WIDTH:0.7
G1 X88.842 Y65.414 E5.12068
G1 X88.294 Y65.725 E5.17797
G1 X87.875 Y66.08 E5.22791
G1 X87.875 Y64.639 E5.35894
G1 X87.94 Y64.307 E5.3897
G1 X88.082 Y64.165 E5.40796
G1 X88.344 Y64.104 E5.43242
G1 X88.858 Y64.1 E5.47916
;WIDTH:0.745502
G1 X88.975 Y64.123 E5.49079
;WIDTH:0.791005
G1 X89.093 Y64.145 E5.50329
;WIDTH:0.836507
G1 X89.211 Y64.168 E5.51661
;WIDTH:0.88201
G1 X89.329 Y64.191 E5.53073
;WIDTH:0.927513
G1 X89.447 Y64.214 E5.54564
G1 X90.419 Y64.19 E5.66624
;WIDTH:0.922919
G1 X91.053 Y64.211 E5.7445
G1 X91.159 Y64.189 E5.75786
;WIDTH:0.878335
G1 X91.266 Y64.167 E5.77063
;WIDTH:0.833751
G1 X91.372 Y64.144 E5.7826
;WIDTH:0.789167
G1 X91.478 Y64.122 E5.79385
;WIDTH:0.744583
G1 X91.584 Y64.1 E5.8044
;WIDTH:0.7
G1 X110.978 Y64.1 E7.56789
G1 X111.232 Y64.187 E7.5923
G1 X110.703 Y64.379 E7.64347
G1 X110.067 Y64.813 E7.71348
G1 X109.753 Y65.362 E7.77099
G1 X109.675 Y65.847 E7.81566
G1 X109.675 Y67.526 E7.96833
G1 X109.725 Y67.916 E8.00408
G1 X109.895 Y68.325 E8.04435
G1 X110.259 Y68.744 E8.09482
G1 X110.703 Y68.994 E8.14115
G1 X111.232 Y69.187 E8.19235
G1 X110.703 Y69.379 E8.24352
G1 X110.259 Y69.629 E8.28985
G1 X109.895 Y70.048 E8.34032
G1 X109.756 Y70.353 E8.3708
G1 X109.675 Y70.847 E8.41632
G1 X109.675 Y72.526 E8.56899
G1 X109.711 Y72.858 E8.59936
G1 X109.876 Y73.292 E8.64158
G1 X110.236 Y73.725 E8.69278
G1 X110.703 Y73.994 E8.74179
G1 X111.232 Y74.187 E8.79299
G1 X110.703 Y74.379 E8.84416
G1 X110.236 Y74.648 E8.89317
G1 X109.876 Y75.081 E8.94437
G1 X109.747 Y75.38 E8.97398
G1 X109.675 Y75.847 E9.01695
G1 X109.675 Y77.526 E9.16962
G1 X109.711 Y77.86 E9.20017
G1 X109.878 Y78.295 E9.24254
G1 X110.238 Y78.727 E9.29367
G1 X110.703 Y78.994 E9.34243
G1 X111.232 Y79.187 E9.39363
G1 X110.703 Y79.379 E9.4448
G1 X110.238 Y79.646 E9.49356
G1 X109.878 Y80.078 E9.54469
G1 X109.748 Y80.377 E9.57434
G1 X109.675 Y80.847 E9.61759
G1 X109.675 Y82.526 E9.77026
G1 X109.711 Y82.86 E9.80081
G1 X109.878 Y83.295 E9.84318
G1 X110.238 Y83.727 E9.89431
G1 X110.703 Y83.994 E9.94307
G1 X111.232 Y84.187 E9.99427
G1 X110.703 Y84.379 E10.04544
G1 X110.238 Y84.646 E10.0942
G1 X109.878 Y85.078 E10.14533
G1 X109.748 Y85.377 E10.17498
G1 X109.675 Y85.847 E10.21823
G1 X109.675 Y87.526 E10.3709
G1 X109.714 Y87.87 E10.40238
G1 X109.887 Y88.312 E10.44554
G1 X110.25 Y88.737 E10.49636
G1 X110.703 Y88.994 E10.54372
G1 X111.232 Y89.187 E10.59492
G1 X110.703 Y89.379 E10.64609
G1 X110.25 Y89.636 E10.69345
G1 X109.887 Y90.062 E10.74434
G1 X109.752 Y90.364 E10.77442
G1 X109.675 Y90.847 E10.81889
G1 X109.675 Y92.526 E10.97156
G1 X109.751 Y93.006 E11.01575
G1 X109.977 Y93.448 E11.06089
G1 X110.343 Y93.807 E11.10751
G1 X110.703 Y93.994 E11.1444
G1 X111.232 Y94.187 E11.1956
G1 X110.703 Y94.379 E11.24677
G1 X110.343 Y94.566 E11.28366
G1 X109.977 Y94.925 E11.33028
G1 X109.763 Y95.33 E11.37193
G1 X109.675 Y95.847 E11.41962
G1 X109.675 Y96.655 E11.49309
G1 X109.7 Y96.857 E11.5116
;WIDTH:0.65011
G1 X109.725 Y97.059 E11.52863
;WIDTH:0.600221
G1 X109.75 Y97.26 E11.54411
;WIDTH:0.550332
G1 X109.775 Y97.462 E11.55819
G1 X109.745 Y97.262 E11.57217
;WIDTH:0.600221
G1 X109.714 Y97.062 E11.58763
;WIDTH:0.65011
G1 X109.684 Y96.861 E11.60463
;WIDTH:0.7
G1 X109.654 Y96.661 E11.62302
G1 X109.145 Y96.14 E11.68925
G1 X108.66 Y95.939 E11.73699
G1 X108.313 Y95.9 E11.76874
G1 X95.875 Y95.9 E12.89972
G1 X95.875 Y75.847 E14.72313
G1 X95.858 Y75.23 E14.77925
G1 X95.71 Y74.764 E14.82371
G1 X95.491 Y74.437 E14.8595
G1 X95.191 Y74.17 E14.89602
G1 X94.763 Y73.967 E14.93909
G1 X94.313 Y73.9 E14.98046
G1 X88.414 Y73.9 E15.51685
G1 X88.082 Y73.835 E15.54761
G1 X87.94 Y73.693 E15.56587
G1 X87.875 Y73.397 E15.59343
G1 X87.875 Y70.911 E15.81948
G1 X88.433 Y71.369 E15.88512
G1 X88.9 Y71.62 E15.93333
G1 X89.323 Y71.774 E15.97426
G1 X90.16 Y71.915 E16.05144
G1 X90.765 Y71.876 E16.10657
G1 X91.188 Y71.785 E16.14591
G1 X91.688 Y71.603 E16.19429
G1 X92.07 Y71.4 E16.23363
G1 X92.47 Y71.11 E16.27856
G1 X92.803 Y70.785 E16.32087
G1 X93.244 Y70.194 E16.38792
G1 X93.516 Y69.561 E16.45057
G1 X93.624 Y69.129 E16.49106
G1 X93.689 Y68.363 E16.56096
G1 X93.586 Y67.684 E16.62341
G1 X93.462 Y67.291 E16.66088
G1 X93.236 Y66.81 E16.7092
G1 X92.988 Y66.435 E16.75008
G1 X92.635 Y66.038 E16.79839
G1 X92.29 Y65.749 E16.83931
G1 X91.838 Y65.47 E16.88761
G1 X91.726 Y65.421 E16.89873
G1 E14.89873 F2400
G92 E0
G1 X91.726 Y65.421 F7800
G1 X109.775 Y97.462
G1 E2 F2400
;WIDTH:0.522607
G1 F1800
G1 X109.786 Y97.781 E2.02078
G1 X109.786 Y97.781 F7800
G1 X109.905 Y98.383
;WIDTH:0.758998
G1 F1800
G1 X110.422 Y98.893 E2.09305
G1 X111.145 Y99.187 E2.17072
G1 X110.422 Y99.48 E2.24835
G1 X109.905 Y99.99 E2.32062
G1 X109.905 Y98.443 E2.47457
G1 E.47457 F2400
G92 E0
G1 X109.905 Y98.443 F7800
G1 X110.876 Y133.9
G1 E2 F2400
;WIDTH:0.404568
G1 F1800
G1 X111.664 Y134.187 E2.0402
G1 X111.093 Y134.394 E2.06932
G1 X110.9 Y133.955 E2.09231
G1 E.09231 F2400
G92 E0
G1 X110.9 Y133.955 F7800
G1 X109.775 Y130.847
G1 E2 F2400
;WIDTH:0.500443
G1 F1800
G1 X109.775 Y131.284 E2.02705
G1 E.02705 F2400
G92 E0
G1 X109.775 Y131.284 F7800
G1 X109.905 Y128.383
G1 E2 F2400
;WIDTH:0.759
G1 F1800
G1 X110.422 Y128.893 E2.07227
G1 X111.145 Y129.187 E2.14994
G1 X110.422 Y129.48 E2.22757
G1 X109.905 Y129.99 E2.29984
G1 X109.905 Y128.443 E2.45379
G1 E.45379 F2400
G92 E0
G1 X109.905 Y128.443 F7800
G1 X109.775 Y125.847
G1 E2 F2400
;WIDTH:0.500443
G1 F1800
G1 X109.775 Y127.526 E2.10392
;WIDTH:0.522607
G1 X109.786 Y127.781 E2.12054
G1 E.12054 F2400
G92 E0
G1 X109.786 Y127.781 F7800
G1 X109.905 Y123.383
G1 E2 F2400
;WIDTH:0.759
G1 F1800
G1 X110.422 Y123.893 E2.07227
G1 X111.145 Y124.187 E2.14994
G1 X110.422 Y124.48 E2.22757
G1 X109.905 Y124.99 E2.29984
G1 X109.905 Y123.443 E2.45379
G1 E.45379 F2400
G92 E0
G1 X109.905 Y123.443 F7800
G1 X109.775 Y120.847
G1 E2 F2400
;WIDTH:0.500443
G1 F1800
G1 X109.775 Y122.526 E2.10392
;WIDTH:0.522607
G1 X109.786 Y122.781 E2.12054
G1 E.12054 F2400
G92 E0
G1 X109.786 Y122.781 F7800
G1 X109.905 Y118.383
G1 E2 F2400
;WIDTH:0.759
G1 F1800
G1 X110.422 Y118.893 E2.07227
G1 X111.145 Y119.187 E2.14994
G1 X110.422 Y119.48 E2.22757
G1 X109.905 Y119.99 E2.29984
G1 X109.905 Y118.443 E2.45379
G1 E.45379 F2400
G92 E0
G1 X109.905 Y118.443 F7800
G1 X109.775 Y115.847
G1 E2 F2400
;WIDTH:0.500443
G1 F1800
G1 X109.775 Y117.526 E2.10392
;WIDTH:0.522607
G1 X109.786 Y117.781 E2.12054
G1 E.12054 F2400
G92 E0
G1 X109.786 Y117.781 F7800
G1 X109.905 Y113.383
G1 E2 F2400
;WIDTH:0.759001
G1 F1800
G1 X110.422 Y113.893 E2.07227
G1 X111.145 Y114.187 E2.14994
G1 X110.422 Y114.48 E2.22757
G1 X109.905 Y114.99 E2.29984
G1 X109.905 Y113.443 E2.45379
G1 E.45379 F2400
G92 E0
G1 X109.905 Y113.443 F7800
G1 X109.775 Y110.847
G1 E2 F2400
;WIDTH:0.500443
G1 F1800
G1 X109.775 Y112.526 E2.10392
;WIDTH:0.522607
G1 X109.786 Y112.781 E2.12054
G1 E.12054 F2400
G92 E0
G1 X109.786 Y112.781 F7800
G1 X109.905 Y108.383
G1 E2 F2400
;WIDTH:0.758998
G1 F1800
G1 X110.422 Y108.893 E2.07227
G1 X111.145 Y109.187 E2.14994
G1 X110.422 Y109.48 E2.22757
G1 X109.905 Y109.99 E2.29984
G1 X109.905 Y108.443 E2.45379
G1 E.45379 F2400
G92 E0
G1 X109.905 Y108.443 F7800
G1 X109.775 Y105.847
G1 E2 F2400
;WIDTH:0.500443
G1 F1800
G1 X109.775 Y107.526 E2.10392
;WIDTH:0.522607
G1 X109.786 Y107.781 E2.12054
G1 E.12054 F2400
G92 E0
G1 X109.786 Y107.781 F7800
G1 X109.905 Y103.383
G1 E2 F2400
;WIDTH:0.758998
G1 F1800
G1 X110.422 Y103.893 E2.07227
G1 X111.145 Y104.187 E2.14994
G1 X110.422 Y104.48 E2.22757
G1 X109.905 Y104.99 E2.29984
G1 X109.905 Y103.443 E2.45379
G1 E.45379 F2400
G92 E0
G1 X109.905 Y103.443 F7800
G1 X109.775 Y100.847
G1 E2 F2400
;WIDTH:0.500443
G1 F1800
G1 X109.775 Y102.526 E2.10392
;WIDTH:0.522607
G1 X109.786 Y102.781 E2.12054
G1 E.12054 F2400
G92 E0
G1 X109.786 Y102.781 F7800
G1 X110.475 Y90.314
G1 E2 F2400
;WIDTH:0.7
G1 F1800
G1 X110.362 Y90.513 E2.02081
G1 X110.3 Y90.847 E2.0517
G1 X110.31 Y92.662 E2.21674
G1 X110.416 Y92.976 E2.24687
G1 X110.564 Y93.178 E2.26964
G1 X110.917 Y93.407 E2.3079
G1 X112.75 Y94.074 E2.48527
G1 X112.75 Y94.299 E2.50573
G1 X110.917 Y94.966 E2.6831
G1 X110.701 Y95.078 E2.70522
G1 X110.481 Y95.294 E2.73325
G1 X110.353 Y95.537 E2.75822
G1 X110.3 Y95.847 E2.78682
G1 X110.314 Y97.688 E2.95423
G1 X110.44 Y98.019 E2.98643
G1 X110.757 Y98.331 E3.02687
G1 X110.917 Y98.407 E3.04298
G1 X112.75 Y99.074 E3.22035
G1 X112.75 Y99.299 E3.24081
G1 X110.917 Y99.966 E3.41818
G1 X110.757 Y100.042 E3.43429
G1 X110.44 Y100.354 E3.47473
G1 X110.3 Y100.847 E3.52133
G1 X110.3 Y102.526 E3.674
G1 X110.314 Y102.688 E3.68879
G1 X110.44 Y103.019 E3.72099
G1 X110.757 Y103.331 E3.76143
G1 X110.917 Y103.407 E3.77754
G1 X112.75 Y104.074 E3.95491
G1 X112.75 Y104.299 E3.97537
G1 X110.917 Y104.966 E4.15274
G1 X110.757 Y105.042 E4.16885
G1 X110.44 Y105.354 E4.20929
G1 X110.3 Y105.847 E4.25589
G1 X110.3 Y107.526 E4.40856
G1 X110.314 Y107.688 E4.42335
G1 X110.44 Y108.019 E4.45555
G1 X110.757 Y108.331 E4.49599
G1 X110.917 Y108.407 E4.5121
G1 X112.75 Y109.074 E4.68947
G1 X112.75 Y109.299 E4.70993
G1 X110.917 Y109.966 E4.8873
G1 X110.757 Y110.042 E4.90341
G1 X110.44 Y110.354 E4.94385
G1 X110.3 Y110.847 E4.99045
G1 X110.3 Y112.526 E5.14312
G1 X110.314 Y112.688 E5.15791
G1 X110.44 Y113.019 E5.19011
G1 X110.757 Y113.331 E5.23055
G1 X110.917 Y113.407 E5.24666
G1 X112.75 Y114.074 E5.42403
G1 X112.75 Y114.299 E5.44449
G1 X110.917 Y114.966 E5.62186
G1 X110.757 Y115.042 E5.63797
G1 X110.44 Y115.354 E5.67841
G1 X110.3 Y115.847 E5.72501
G1 X110.3 Y117.526 E5.87768
G1 X110.314 Y117.688 E5.89247
G1 X110.44 Y118.019 E5.92467
G1 X110.757 Y118.331 E5.96511
G1 X110.917 Y118.407 E5.98122
G1 X112.75 Y119.074 E6.15859
G1 X112.75 Y119.299 E6.17905
G1 X110.917 Y119.966 E6.35642
G1 X110.757 Y120.042 E6.37253
G1 X110.44 Y120.354 E6.41297
G1 X110.3 Y120.847 E6.45957
G1 X110.3 Y122.526 E6.61224
G1 X110.314 Y122.688 E6.62703
G1 X110.44 Y123.019 E6.65923
G1 X110.757 Y123.331 E6.69967
G1 X110.917 Y123.407 E6.71578
G1 X112.75 Y124.074 E6.89315
G1 X112.75 Y124.299 E6.91361
G1 X110.917 Y124.966 E7.09098
G1 X110.757 Y125.042 E7.10709
G1 X110.44 Y125.354 E7.14753
G1 X110.3 Y125.847 E7.19413
G1 X110.3 Y127.526 E7.3468
G1 X110.314 Y127.688 E7.36159
G1 X110.44 Y128.019 E7.39379
G1 X110.757 Y128.331 E7.43423
G1 X110.917 Y128.407 E7.45034
G1 X112.75 Y129.074 E7.62771
G1 X112.75 Y129.299 E7.64817
G1 X110.917 Y129.966 E7.82554
G1 X110.757 Y130.042 E7.84165
G1 X110.44 Y130.354 E7.88209
G1 X110.3 Y130.847 E7.92869
G1 X110.313 Y132.526 E8.08137
;WIDTH:0.674293
G1 X110.343 Y132.633 E8.09106
;WIDTH:0.641565
G1 X110.372 Y132.74 E8.1002
;WIDTH:0.619912
G1 X110.513 Y133.055 E8.12756
;WIDTH:0.659956
G1 X110.715 Y133.231 E8.15036
;WIDTH:0.7
G1 X110.917 Y133.407 E8.17472
G1 X112.75 Y134.074 E8.35209
G1 X112.75 Y134.187 E8.36237
G1 X112.75 Y134.299 E8.37255
G1 X110.917 Y134.966 E8.54992
G1 X110.86 Y135.048 E8.559
G1 X110.387 Y133.974 E8.66571
G1 X110.208 Y133.626 E8.70129
;WIDTH:0.654418
G1 X110.03 Y133.277 E8.73432
;WIDTH:0.641565
G1 X109.907 Y132.958 E8.7625
;WIDTH:0.674293
G1 X109.784 Y132.638 E8.79239
;WIDTH:0.7
G1 X109.25 Y131.395 E8.9154
G1 X109.25 Y97.526 E11.99509
G1 X109.117 Y96.981 E12.0461
G1 X108.812 Y96.669 E12.08577
G1 X108.521 Y96.549 E12.11439
G1 X108.313 Y96.525 E12.13343
G1 X95.25 Y96.525 E13.32124
G1 X95.25 Y75.847 E15.20148
G1 X95.248 Y75.392 E15.24285
G1 X95.151 Y75.044 E15.2757
G1 X94.96 Y74.785 E15.30496
G1 X94.693 Y74.606 E15.33419
G1 X94.313 Y74.525 E15.36952
G1 X88.338 Y74.525 E15.91282
G1 X87.889 Y74.431 E15.95453
G1 X87.556 Y74.219 E15.99043
G1 X87.344 Y73.886 E16.02633
G1 X87.25 Y73.437 E16.06804
G1 X87.25 Y69.465 E16.42921
G1 X87.226 Y69.268 E16.44726
;WIDTH:0.652393
G1 X87.203 Y69.071 E16.46392
;WIDTH:0.604787
G1 X87.179 Y68.873 E16.47929
;WIDTH:0.55718
G1 X87.155 Y68.676 E16.49321
;WIDTH:0.517591
G1 X87.159 Y68.145 E16.5274
