; generated by PrusaSlicer 2.8.1+win64 on 2024-10-10 at 21:30:25 UTC

; 

; external perimeters extrusion width = 0.45mm
; perimeters extrusion width = 0.45mm
; infill extrusion width = 0.45mm
; solid infill extrusion width = 0.45mm
; top infill extrusion width = 0.40mm
; first layer extrusion width = 0.70mm

M104 S200 ; set temperature
;TYPE:Custom
G28 ; home all axes
G1 Z5 F5000 ; lift nozzle
M109 S200 ; set temperature and wait for it to be reached
G21 ; set units to millimeters
G90 ; use absolute coordinates
M82 ; use absolute distances for extrusion
G92 E0
; Filament gcode
M107
;LAYER_CHANGE
;Z:0.35
;HEIGHT:0.35
G1 E-2 F2400
G1 Z.35 F7800
G1 X59.829 Y61.586
G1 E0 F2400
;TYPE:Skirt/Brim
;WIDTH:0.7
G1 F1800
G1 X60.905 Y60.6 E.13271
G1 X80.736 Y46.258 E2.35809
G1 X82.236 Y45.267 E2.52156
G1 X84.688 Y43.851 E2.77903
G1 X86.295 Y43.048 E2.94238
G1 X89.138 Y41.848 E3.22298
G1 X91.823 Y40.952 E3.48036
G1 X93.559 Y40.487 E3.64378
G1 X96.333 Y39.92 E3.90123
G1 X98.113 Y39.668 E4.0647
G1 X100.935 Y39.44 E4.32214
G1 X102.769 Y39.405 E4.48894
G1 X105.56 Y39.518 E4.74293
G1 X107.348 Y39.698 E4.90633
G1 X110.143 Y40.153 E5.16382
G1 X111.896 Y40.547 E5.3272
G1 X114.616 Y41.335 E5.5847
G1 X116.308 Y41.938 E5.74803
G1 X118.913 Y43.048 E6.00551
G1 X120.521 Y43.851 E6.16894
G1 X122.973 Y45.267 E6.42641
G1 X124.472 Y46.258 E6.58981
G1 X144.304 Y60.6 E8.81527
G1 X145.856 Y62.213 E9.01881
G1 X146.748 Y64.266 E9.22235
G1 X146.917 Y65.715 E9.355
G1 X146.917 Y129.715 E15.17449
G1 X146.52 Y131.918 E15.37803
G1 X145.379 Y133.844 E15.58159
G1 X143.638 Y135.25 E15.78508
G1 X142.347 Y135.782 E15.91205
G1 X100.578 Y147.782 E19.86372
G1 X98.835 Y148.027 E20.02377
G1 X85.776 Y148.001 E21.21122
G1 X64.026 Y146.001 E23.19728
G1 X61.869 Y145.404 E23.40079
G1 X60.056 Y144.092 E23.60428
G1 X58.814 Y142.229 E23.80788
G1 X58.292 Y139.715 E24.04135
G1 X58.292 Y65.715 E30.77014
G1 X58.689 Y63.512 E30.97368
G1 X59.799 Y61.638 E31.17173
G1 E29.17173 F2400
G92 E0
G1 X59.799 Y61.638 F7800
G92 E0
G1 X118.94 Y91.612
G1 E2 F2400
;TYPE:Perimeter
;WIDTH:0.7
G1 F1800
G1 X119.264 Y91.512 E2.03083
G1 X119.83 Y91.428 E2.08286
G1 X120.363 Y91.429 E2.13133
G1 X120.955 Y91.516 E2.18574
G1 X121.458 Y91.67 E2.23357
G1 X122.067 Y91.964 E2.29506
G1 X122.484 Y92.259 E2.34151
G1 X122.956 Y92.708 E2.40075
G1 X123.305 Y93.173 E2.45362
G1 X123.58 Y93.685 E2.50647
G1 X123.772 Y94.234 E2.55936
G1 X123.879 Y94.805 E2.61218
G1 X123.898 Y95.386 E2.66504
G1 X123.827 Y95.963 E2.7179
G1 X123.669 Y96.523 E2.77081
G1 X123.432 Y97.043 E2.82277
G1 X123.112 Y97.532 E2.87591
G1 X122.719 Y97.969 E2.92935
G1 X122.268 Y98.336 E2.98222
G1 X121.766 Y98.629 E3.03507
G1 X121.225 Y98.843 E3.08797
G1 X120.658 Y98.971 E3.14082
G1 X120.078 Y99.012 E3.19369
G1 X119.509 Y98.965 E3.24561
G1 X118.941 Y98.829 E3.29872
G1 X118.396 Y98.606 E3.35226
G1 X117.899 Y98.306 E3.40505
G1 X117.453 Y97.933 E3.45792
G1 X117.069 Y97.496 E3.51082
G1 X116.756 Y97.006 E3.56369
G1 X116.522 Y96.474 E3.61654
G1 X116.372 Y95.912 E3.66943
G1 X116.309 Y95.334 E3.7223
G1 X116.335 Y94.754 E3.77509
G1 X116.45 Y94.184 E3.82796
G1 X116.65 Y93.638 E3.88083
G1 X116.931 Y93.129 E3.9337
G1 X117.287 Y92.669 E3.98659
G1 X117.708 Y92.269 E4.0394
G1 X118.186 Y91.938 E4.09227
G1 X118.709 Y91.683 E4.14518
G1 X118.882 Y91.63 E4.16163
G1 X118.882 Y91.63 F7800
G1 X119.103 Y92.206
G1 F1800
G1 X119.55 Y92.09 E4.20362
G1 X120.041 Y92.043 E4.24847
G1 X120.539 Y92.072 E4.29383
G1 X121.014 Y92.175 E4.33803
G1 X121.517 Y92.376 E4.38728
G1 X121.889 Y92.591 E4.42635
G1 X122.268 Y92.894 E4.47047
G1 X122.597 Y93.252 E4.51468
G1 X122.868 Y93.656 E4.55891
G1 X123.073 Y94.096 E4.60305
G1 X123.209 Y94.562 E4.64719
G1 X123.273 Y95.044 E4.6914
G1 X123.262 Y95.529 E4.73551
G1 X123.177 Y96.008 E4.77975
G1 X123.02 Y96.467 E4.82386
G1 X122.801 Y96.885 E4.86677
G1 X122.506 Y97.289 E4.91226
G1 X122.161 Y97.631 E4.95643
G1 X121.656 Y97.978 E5.01214
G1 X121.121 Y98.216 E5.06538
G1 X120.539 Y98.358 E5.11985
G1 X120.004 Y98.388 E5.16857
G1 X119.496 Y98.33 E5.21506
G1 X119.012 Y98.196 E5.26073
G1 X118.546 Y97.98 E5.30743
G1 X118.124 Y97.694 E5.35378
G1 X117.639 Y97.206 E5.41634
G1 X117.293 Y96.687 E5.47306
G1 X117.083 Y96.191 E5.52204
G1 X116.966 Y95.699 E5.56802
G1 X116.93 Y95.181 E5.61524
G1 X116.976 Y94.678 E5.66117
G1 X117.101 Y94.189 E5.70706
G1 X117.293 Y93.743 E5.75121
G1 X117.674 Y93.182 E5.81287
G1 X118.124 Y92.736 E5.87048
G1 X118.576 Y92.432 E5.92001
G1 X119.045 Y92.223 E5.9667
G1 X119.045 Y92.223 F7800
G1 X119.269 Y92.812
;TYPE:External perimeter
G1 F1800
G1 X119.303 Y92.797 E5.97008
G1 X119.816 Y92.688 E6.01777
G1 X120.321 Y92.678 E6.0637
G1 X120.803 Y92.763 E6.1082
G1 X121.218 Y92.925 E6.14871
G1 X121.726 Y93.253 E6.20369
G1 X122.086 Y93.611 E6.24986
G1 X122.308 Y93.933 E6.28542
G1 X122.478 Y94.284 E6.32088
G1 X122.592 Y94.657 E6.35635
G1 X122.648 Y95.044 E6.39191
G1 X122.644 Y95.434 E6.42737
G1 X122.581 Y95.819 E6.46284
G1 X122.46 Y96.19 E6.49832
G1 X122.288 Y96.528 E6.5328
G1 X122.056 Y96.855 E6.56926
G1 X121.782 Y97.134 E6.60482
G1 X121.358 Y97.429 E6.65179
G1 X120.803 Y97.667 E6.7067
G1 X120.373 Y97.75 E6.74652
G1 X119.753 Y97.735 E6.80291
G1 X119.262 Y97.621 E6.84874
G1 X118.865 Y97.443 E6.8883
G1 X118.375 Y97.081 E6.9437
G1 X118.033 Y96.701 E6.99019
G1 X117.809 Y96.325 E7.02999
G1 X117.667 Y95.961 E7.06552
G1 X117.581 Y95.58 E7.10104
G1 X117.555 Y95.191 E7.13649
G1 X117.589 Y94.802 E7.172
G1 X117.702 Y94.371 E7.21252
G1 X117.947 Y93.866 E7.26356
G1 X118.251 Y93.464 E7.30939
G1 X118.54 Y93.202 E7.34486
G1 X118.907 Y92.964 E7.38463
G1 X119.213 Y92.835 E7.41483
G1 X119.601 Y92.736 F7800
G1 E5.41483 F2400
G92 E0
G1 X123.429 Y58.381 F7800
G1 E2 F2400
;TYPE:Perimeter
G1 F1800
G1 X123.663 Y58.892 E2.05111
G1 X123.827 Y59.467 E2.10548
G1 X123.898 Y60.044 E2.15834
G1 X123.879 Y60.625 E2.2112
G1 X123.794 Y61.12 E2.25687
G1 X123.583 Y61.738 E2.31625
G1 X123.305 Y62.257 E2.36979
G1 X122.993 Y62.683 E2.4178
G1 X122.589 Y63.089 E2.46988
G1 X122.163 Y63.409 E2.51833
G1 X121.604 Y63.705 E2.57585
G1 X121.073 Y63.889 E2.62695
G1 X120.507 Y63.993 E2.67928
G1 X119.898 Y64.009 E2.73468
G1 X119.274 Y63.921 E2.79198
G1 X118.709 Y63.746 E2.84576
G1 X118.186 Y63.492 E2.89863
G1 X117.708 Y63.161 E2.9515
G1 X117.334 Y62.815 E2.99783
G1 X116.976 Y62.372 E3.04962
G1 X116.655 Y61.805 E3.10887
G1 X116.45 Y61.246 E3.16301
G1 X116.335 Y60.676 E3.21588
G1 X116.309 Y60.095 E3.26876
G1 X116.372 Y59.517 E3.32163
G1 X116.522 Y58.956 E3.37443
G1 X116.734 Y58.462 E3.42331
G1 X117.069 Y57.934 E3.48017
G1 X117.453 Y57.497 E3.53307
G1 X117.899 Y57.124 E3.58594
G1 X118.396 Y56.824 E3.63873
G1 X118.934 Y56.603 E3.69162
G1 X119.499 Y56.466 E3.74448
G1 X120.062 Y56.419 E3.79585
G1 X120.658 Y56.458 E3.85016
G1 X121.225 Y56.587 E3.90303
G1 X121.766 Y56.801 E3.95593
G1 X122.268 Y57.094 E4.00878
G1 X122.698 Y57.44 E4.05897
G1 X123.09 Y57.867 E4.11168
G1 X123.396 Y58.331 E4.16222
G1 X123.396 Y58.331 F7800
G1 X122.863 Y58.661
G1 F1800
G1 X123.068 Y59.083 E4.20488
G1 X123.218 Y59.616 E4.25523
G1 X123.273 Y60.044 E4.29447
G1 X123.262 Y60.529 E4.33858
G1 X123.177 Y61.008 E4.38282
G1 X123.02 Y61.467 E4.42693
G1 X122.794 Y61.898 E4.47118
G1 X122.41 Y62.388 E4.52779
G1 X122.191 Y62.608 E4.55602
G1 X121.768 Y62.917 E4.60365
G1 X121.193 Y63.19 E4.66153
G1 X120.539 Y63.358 E4.72293
G1 X119.946 Y63.385 E4.77691
G1 X119.436 Y63.317 E4.82369
G1 X118.836 Y63.119 E4.88114
G1 X118.251 Y62.79 E4.94217
G1 X117.868 Y62.466 E4.98779
G1 X117.495 Y62.024 E5.04038
G1 X117.233 Y61.566 E5.08836
G1 X117.034 Y61.002 E5.14274
G1 X116.942 Y60.421 E5.19623
G1 X116.952 Y59.886 E5.24489
G1 X117.058 Y59.326 E5.29671
G1 X117.239 Y58.848 E5.34319
G1 X117.496 Y58.404 E5.38984
G1 X117.868 Y57.963 E5.4423
G1 X118.289 Y57.616 E5.49191
G1 X118.766 Y57.343 E5.54188
G1 X119.424 Y57.116 E5.60517
G1 X119.966 Y57.044 E5.65489
G1 X120.539 Y57.072 E5.70705
G1 X121.014 Y57.175 E5.75125
G1 X121.467 Y57.35 E5.79541
G1 X122.057 Y57.72 E5.85874
G1 X122.506 Y58.141 E5.91471
G1 X122.816 Y58.564 E5.9624
G1 X122.837 Y58.607 E5.96675
G1 X122.837 Y58.607 F7800
G1 X122.309 Y58.935
;TYPE:External perimeter
G1 F1800
G1 X122.473 Y59.274 E6.00099
G1 X122.6 Y59.711 E6.04237
G1 X122.648 Y60.044 E6.07296
G1 X122.644 Y60.434 E6.10842
G1 X122.581 Y60.819 E6.14389
G1 X122.46 Y61.19 E6.17937
G1 X122.283 Y61.538 E6.21487
G1 X121.96 Y61.955 E6.26283
G1 X121.792 Y62.126 E6.28463
G1 X121.313 Y62.453 E6.33737
G1 X120.803 Y62.667 E6.38766
G1 X120.361 Y62.751 E6.42857
G1 X119.871 Y62.748 E6.47313
G1 X119.376 Y62.653 E6.51896
G1 X118.907 Y62.466 E6.56487
G1 X118.54 Y62.228 E6.60464
G1 X118.251 Y61.965 E6.64017
G1 X117.995 Y61.644 E6.6775
G1 X117.733 Y61.136 E6.72947
G1 X117.589 Y60.628 E6.77748
G1 X117.555 Y60.191 E6.81734
G1 X117.641 Y59.577 E6.87372
G1 X117.809 Y59.105 E6.91928
G1 X118.033 Y58.729 E6.95908
G1 X118.376 Y58.348 E7.0057
G1 X118.865 Y57.987 E7.06097
G1 X119.265 Y57.808 E7.10082
G1 X119.642 Y57.708 E7.13629
G1 X120.019 Y57.668 E7.17076
G1 X120.511 Y57.703 E7.21561
G1 X121.125 Y57.879 E7.27369
G1 X121.51 Y58.088 E7.31352
G1 X121.818 Y58.328 E7.34902
G1 X122.086 Y58.611 E7.38446
G1 X122.275 Y58.886 E7.4148
G1 X122.453 Y59.244 F7800
G1 E5.4148 F2400
G92 E0
G1 X86.057 Y79 F7800
G1 E2 F2400
;TYPE:Perimeter
G1 F1800
G1 X86.01 Y78.112 E2.08086
G1 X86.015 Y77.128 E2.17034
G1 X86.086 Y76.072 E2.26658
G1 X86.183 Y75.32 E2.33553
G1 X86.348 Y74.377 E2.42258
G1 X86.562 Y73.469 E2.50741
G1 X86.825 Y72.58 E2.59171
G1 X87.074 Y71.872 E2.65995
G1 X87.258 Y71.388 E2.70703
G1 X87.803 Y70.21 E2.82505
G1 X88.114 Y69.618 E2.88586
G1 X88.714 Y68.63 E2.99097
G1 X89.173 Y67.961 E3.06474
G1 X89.775 Y67.182 E3.15426
G1 X90.298 Y66.581 E3.2267
G1 X90.8 Y66.054 E3.29288
G1 X91.197 Y65.657 E3.34393
G1 X91.84 Y65.079 E3.42255
G1 X92.682 Y64.408 E3.52045
G1 X93.41 Y63.895 E3.60143
G1 X94.245 Y63.374 E3.69092
G1 X95.109 Y62.904 E3.78035
G1 X96 Y62.486 E3.86984
G1 X96.941 Y62.113 E3.96188
G1 X97.848 Y61.812 E4.04878
G1 X98.738 Y61.574 E4.13255
G1 X99.301 Y61.454 E4.18489
G1 X99.842 Y61.347 E4.23504
G1 X100.732 Y61.222 E4.31676
G1 X101.773 Y61.137 E4.41173
G1 X102.7 Y61.116 E4.49604
G1 X103.824 Y61.162 E4.59833
G1 X104.667 Y61.244 E4.67535
G1 X105.814 Y61.431 E4.78102
G1 X106.629 Y61.612 E4.85693
G1 X107.265 Y61.789 E4.91696
G1 X108.473 Y62.188 E5.03264
G1 X109.383 Y62.563 E5.12214
G1 X110.269 Y62.991 E5.21161
G1 X111.127 Y63.471 E5.30101
G1 X111.956 Y64.001 E5.39048
G1 X112.639 Y64.497 E5.46723
G1 X113.264 Y64.998 E5.54007
G1 X114.235 Y65.871 E5.6588
G1 X114.661 Y66.314 E5.71468
G1 X115.554 Y67.33 E5.83768
G1 X116.077 Y68.023 E5.91663
G1 X116.564 Y68.743 E5.99567
G1 X117.034 Y69.524 E6.07855
G1 X117.499 Y70.4 E6.16873
G1 X117.947 Y71.39 E6.26754
G1 X118.359 Y72.489 E6.37426
G1 X118.563 Y73.166 E6.43855
G1 X118.798 Y74.092 E6.52542
G1 X118.981 Y75.043 E6.61348
G1 X119.111 Y76.021 E6.70319
G1 X119.199 Y77.318 E6.8214
G1 X119.193 Y78.302 E6.91088
G1 X119.129 Y79.284 E7.00036
G1 X119.007 Y80.26 E7.0898
G1 X118.828 Y81.227 E7.17922
G1 X118.68 Y81.824 E7.23515
G1 X118.384 Y82.848 E7.33207
G1 X117.985 Y83.952 E7.43881
G1 X117.565 Y84.903 E7.53334
G1 X117.118 Y85.767 E7.62179
G1 X116.671 Y86.521 E7.70149
G1 X116.207 Y87.219 E7.7777
G1 X115.375 Y88.319 E7.90311
G1 X114.787 Y88.989 E7.98417
G1 X114.281 Y89.505 E8.04988
G1 X113.368 Y90.351 E8.16306
G1 X112.825 Y90.788 E8.22644
G1 X111.721 Y91.586 E8.35031
G1 X110.963 Y92.056 E8.43141
G1 X109.747 Y92.693 E8.55623
G1 X109.209 Y92.944 E8.61021
G1 X108.25 Y93.325 E8.70404
G1 X107.548 Y93.556 E8.77124
G1 X106.411 Y93.872 E8.87855
G1 X105.447 Y94.069 E8.96802
G1 X104.473 Y94.209 E9.0575
G1 X103.492 Y94.29 E9.14701
G1 X102.509 Y94.314 E9.23642
G1 X101.526 Y94.279 E9.32586
G1 X100.546 Y94.186 E9.41537
G1 X99.574 Y94.035 E9.50481
G1 X99.059 Y93.925 E9.55269
G1 X98.57 Y93.817 E9.59823
G1 X97.665 Y93.562 E9.68373
G1 X96.956 Y93.319 E9.75188
G1 X96.198 Y93.022 E9.82591
G1 X95.261 Y92.595 E9.91954
G1 X94.432 Y92.155 E10.00488
G1 X93.98 Y91.897 E10.0522
G1 X93.252 Y91.429 E10.1309
G1 X92.687 Y91.019 E10.19438
G1 X91.652 Y90.189 E10.31502
G1 X91.015 Y89.597 E10.39409
G1 X90.467 Y89.031 E10.46573
G1 X89.597 Y88.027 E10.58653
G1 X89.062 Y87.314 E10.66758
G1 X88.469 Y86.417 E10.76536
G1 X88.022 Y85.645 E10.84648
G1 X87.578 Y84.768 E10.93586
G1 X87.186 Y83.865 E11.02537
G1 X86.994 Y83.341 E11.07611
G1 X86.82 Y82.853 E11.12322
G1 X86.567 Y81.998 E11.2043
G1 X86.342 Y81.041 E11.29369
G1 X86.17 Y80.043 E11.38578
G1 X86.062 Y79.094 E11.47263
G1 X86.061 Y79.06 E11.47572
G1 X86.061 Y79.06 F7800
G1 X86.681 Y78.969
G1 F1800
G1 X86.634 Y78.08 E11.55667
G1 X86.64 Y77.133 E11.64278
G1 X86.707 Y76.144 E11.73292
G1 X86.803 Y75.4 E11.80113
G1 X86.962 Y74.493 E11.88486
G1 X87.168 Y73.621 E11.96633
G1 X87.421 Y72.768 E12.04723
G1 X87.657 Y72.095 E12.11208
G1 X87.842 Y71.611 E12.1592
G1 X88.357 Y70.5 E12.27055
G1 X88.667 Y69.908 E12.33131
G1 X89.229 Y68.984 E12.42965
G1 X89.689 Y68.314 E12.50355
G1 X90.268 Y67.566 E12.58956
G1 X90.768 Y66.993 E12.65871
G1 X91.244 Y66.494 E12.72142
G1 X91.615 Y66.122 E12.76919
G1 X92.258 Y65.544 E12.84781
G1 X93.286 Y64.746 E12.96614
G1 X93.77 Y64.405 E13.01998
G1 X94.574 Y63.905 E13.10607
G1 X95.406 Y63.454 E13.19212
G1 X96.264 Y63.053 E13.27824
G1 X97.17 Y62.694 E13.36685
G1 X98.043 Y62.406 E13.45044
G1 X98.898 Y62.178 E13.5309
G1 X99.424 Y62.066 E13.5798
G1 X99.934 Y61.965 E13.62707
G1 X100.823 Y61.84 E13.7087
G1 X101.794 Y61.762 E13.79728
G1 X102.713 Y61.741 E13.88087
G1 X103.763 Y61.784 E13.97643
G1 X104.604 Y61.866 E14.05326
G1 X105.198 Y61.958 E14.10792
G1 X106.488 Y62.221 E14.22763
G1 X107.095 Y62.39 E14.28492
G1 X108.268 Y62.778 E14.39726
G1 X109.143 Y63.14 E14.48336
G1 X109.995 Y63.553 E14.56945
G1 X110.821 Y64.016 E14.65555
G1 X111.618 Y64.526 E14.74159
G1 X112.271 Y65.001 E14.81501
G1 X112.866 Y65.48 E14.88447
G1 X113.809 Y66.329 E14.99985
G1 X114.209 Y66.745 E15.05233
G1 X115.077 Y67.734 E15.17198
G1 X115.577 Y68.398 E15.24756
G1 X116.043 Y69.087 E15.32319
G1 X116.493 Y69.836 E15.40264
G1 X116.941 Y70.681 E15.48961
G1 X117.373 Y71.637 E15.585
G1 X117.772 Y72.702 E15.68841
G1 X117.963 Y73.343 E15.74923
G1 X118.189 Y74.233 E15.83273
G1 X118.366 Y75.149 E15.91756
G1 X118.49 Y76.09 E16.00386
G1 X118.575 Y77.35 E16.11869
G1 X118.568 Y78.297 E16.2048
G1 X118.506 Y79.241 E16.29082
G1 X118.387 Y80.181 E16.37698
G1 X118.214 Y81.111 E16.463
G1 X118.074 Y81.671 E16.51549
G1 X117.788 Y82.661 E16.60919
G1 X117.401 Y83.73 E16.71257
G1 X116.996 Y84.646 E16.80364
G1 X116.565 Y85.477 E16.88876
G1 X116.136 Y86.198 E16.96505
G1 X115.692 Y86.865 E17.03791
G1 X114.905 Y87.907 E17.15665
G1 X114.317 Y88.577 E17.23771
G1 X113.837 Y89.066 E17.30002
G1 X112.95 Y89.886 E17.40986
G1 X112.435 Y90.299 E17.46989
G1 X111.793 Y90.775 E17.54256
G1 X110.634 Y91.525 E17.66809
G1 X109.484 Y92.126 E17.78608
G1 X108.945 Y92.377 E17.84014
G1 X108.189 Y92.678 E17.91413
G1 X107.353 Y92.963 E17.99444
G1 X106.251 Y93.268 E18.09841
G1 X105.323 Y93.456 E18.18451
G1 X104.386 Y93.59 E18.27058
G1 X103.442 Y93.667 E18.3567
G1 X102.496 Y93.689 E18.44274
G1 X101.55 Y93.655 E18.52881
G1 X100.607 Y93.564 E18.61495
G1 X99.672 Y93.418 E18.701
G1 X98.977 Y93.267 E18.76567
G1 X97.835 Y92.961 E18.87317
G1 X97.161 Y92.728 E18.93802
G1 X96.438 Y92.445 E19.00862
G1 X95.535 Y92.033 E19.09887
G1 X94.74 Y91.611 E19.18071
G1 X93.545 Y90.872 E19.30847
G1 X92.825 Y90.346 E19.38955
G1 X92.094 Y89.745 E19.4756
G1 X91.441 Y89.14 E19.55654
G1 X90.919 Y88.6 E19.62483
G1 X90.416 Y88.031 E19.69389
G1 X89.928 Y87.427 E19.7645
G1 X89.562 Y86.939 E19.81997
G1 X88.985 Y86.061 E19.9155
G1 X88.563 Y85.332 E19.99209
G1 X88.136 Y84.487 E20.07818
G1 X87.76 Y83.618 E20.16428
G1 X87.581 Y83.128 E20.21172
G1 X87.152 Y81.767 E20.34148
G1 X86.95 Y80.899 E20.42252
G1 X86.786 Y79.939 E20.51108
G1 X86.684 Y79.029 E20.59434
G1 X86.684 Y79.029 F7800
G1 X87.304 Y78.937
;TYPE:External perimeter
G1 F1800
G1 X87.258 Y78.048 E20.67528
G1 X87.265 Y77.139 E20.75794
G1 X87.328 Y76.216 E20.84206
G1 X87.446 Y75.302 E20.92586
G1 X87.576 Y74.609 E20.98997
G1 X87.774 Y73.773 E21.06809
G1 X88.017 Y72.956 E21.1456
G1 X88.426 Y71.833 E21.25428
G1 X88.91 Y70.79 E21.35883
G1 X89.221 Y70.198 E21.41964
G1 X89.939 Y69.055 E21.54238
