; generated by PrusaSlicer 2.8.1+win64 on 2024-10-10 at 21:27:31 UTC

; 

; external perimeters extrusion width = 0.45mm
; perimeters extrusion width = 0.45mm
; infill extrusion width = 0.45mm
; solid infill extrusion width = 0.45mm
; top infill extrusion width = 0.40mm
; first layer extrusion width = 0.70mm

M104 S200 ; set temperature
;TYPE:Custom
G28 ; home all axes
G1 Z5 F5000 ; lift nozzle
M109 S200 ; set temperature and wait for it to be reached
G21 ; set units to millimeters
G90 ; use absolute coordinates
M82 ; use absolute distances for extrusion
G92 E0
; Filament gcode
M107
;LAYER_CHANGE
;Z:0.35
;HEIGHT:0.35
G1 E-2 F2400
G1 Z.35 F7800
G1 X80.032 Y79.981
G1 E0 F2400
;TYPE:Skirt/Brim
;WIDTH:0.7
G1 F1800
G1 X84.162 Y76.577 E.48666
G1 X85.497 Y75.685 E.63265
G1 X87.195 Y74.79 E.80718
G1 X92.175 Y72.829 E1.29385
G1 X93.721 Y72.393 E1.43991
G1 X95.612 Y72.067 E1.61439
G1 X101.633 Y71.736 E2.1627
G1 X103.176 Y71.867 E2.30351
G1 X104.459 Y72.079 E2.42175
G1 X109.64 Y73.419 E2.90836
G1 X111.59 Y74.169 E3.09834
G1 X112.869 Y74.823 E3.22896
G1 X117.383 Y77.699 E3.71565
G1 X118.644 Y78.693 E3.86165
G1 X120.019 Y80.032 E4.03617
G1 X123.423 Y84.162 E4.52283
G1 X124.315 Y85.497 E4.66882
G1 X125.21 Y87.195 E4.84335
G1 X127.171 Y92.175 E5.33002
G1 X127.607 Y93.721 E5.47608
G1 X127.933 Y95.612 E5.65056
G1 X128.255 Y101.798 E6.21381
G1 X128.075 Y103.652 E6.38319
G1 X126.581 Y109.64 E6.94437
G1 X125.775 Y111.714 E7.1467
G1 X125.177 Y112.869 E7.26497
G1 X122.301 Y117.383 E7.75166
G1 X121.307 Y118.644 E7.89766
G1 X119.968 Y120.019 E8.07218
G1 X115.838 Y123.423 E8.55884
G1 X114.503 Y124.315 E8.70483
G1 X112.805 Y125.21 E8.87936
G1 X107.825 Y127.171 E9.36603
G1 X106.279 Y127.607 E9.51209
G1 X104.388 Y127.933 E9.68657
G1 X98.202 Y128.255 E10.24982
G1 X96.348 Y128.075 E10.4192
G1 X90.36 Y126.581 E10.98038
G1 X88.286 Y125.775 E11.18271
G1 X87.131 Y125.177 E11.30098
G1 X82.617 Y122.301 E11.78767
G1 X81.356 Y121.307 E11.93367
G1 X79.981 Y119.968 E12.10819
G1 X76.577 Y115.838 E12.59485
G1 X75.685 Y114.503 E12.74084
G1 X74.79 Y112.805 E12.91537
G1 X72.829 Y107.825 E13.40204
G1 X72.393 Y106.279 E13.5481
G1 X72.067 Y104.388 E13.72258
G1 X71.745 Y98.202 E14.28583
G1 X71.925 Y96.348 E14.45521
G1 X73.419 Y90.36 E15.01639
G1 X74.225 Y88.286 E15.21872
G1 X74.823 Y87.131 E15.33699
G1 X77.699 Y82.617 E15.82368
G1 X78.693 Y81.356 E15.96968
G1 X79.99 Y80.024 E16.13873
G1 E14.13873 F2400
G92 E0
G92 E0
G1 X98.924 Y104.12 F7800
G1 E2 F2400
;TYPE:Perimeter
;WIDTH:0.7
G1 F1800
G1 X98.792 Y104.091 E2.01229
G1 X98.521 Y104.008 E2.03806
G1 X97.982 Y103.766 E2.09178
;WIDTH:0.70741
G1 X97.363 Y103.366 E2.15959
;WIDTH:0.749597
G1 X97.19 Y103.246 E2.18025
;WIDTH:0.791784
G1 X97.017 Y103.125 E2.20227
G1 X96.797 Y102.84 E2.23982
;WIDTH:0.745892
G1 X96.576 Y102.555 E2.27502
;WIDTH:0.7
G1 X96.264 Y102.053 E2.32876
G1 X96.101 Y101.745 E2.36045
G1 X95.897 Y101.191 E2.41413
G1 X95.766 Y100.538 E2.47469
G1 X95.739 Y100.004 E2.52331
G1 X95.754 Y99.531 E2.56634
G1 X95.859 Y98.95 E2.62003
G1 X96.109 Y98.237 E2.68873
G1 X96.47 Y97.594 E2.75578
;WIDTH:0.735229
G1 X96.559 Y97.449 E2.77212
;WIDTH:0.770458
G1 X96.648 Y97.304 E2.78933
;WIDTH:0.805687
G1 X96.737 Y97.158 E2.80751
;WIDTH:0.816803
G1 X97.196 Y96.701 E2.87741
G1 X97.354 Y96.611 E2.89703
;WIDTH:0.777868
G1 X97.512 Y96.521 E2.91562
;WIDTH:0.738934
G1 X97.669 Y96.431 E2.9331
;WIDTH:0.7
G1 X98 Y96.225 E2.96855
G1 X98.539 Y95.986 E3.02216
G1 X99.269 Y95.791 E3.09087
G1 X99.812 Y95.742 E3.14045
G1 X100.185 Y95.732 E3.17438
G1 X100.756 Y95.795 E3.22662
G1 X101.282 Y95.925 E3.27589
G1 X101.831 Y96.14 E3.3295
G1 X102.496 Y96.533 E3.39974
;WIDTH:0.735711
G1 X102.621 Y96.615 E3.41411
;WIDTH:0.771422
G1 X102.747 Y96.698 E3.4294
;WIDTH:0.807134
G1 X102.873 Y96.78 E3.44541
G1 X103.215 Y97.121 E3.49685
;WIDTH:0.787205
G1 X103.375 Y97.361 E3.52674
;WIDTH:0.743602
G1 X103.534 Y97.6 E3.55466
;WIDTH:0.7
G1 X103.754 Y97.956 E3.59271
G1 X104.045 Y98.626 E3.65913
G1 X104.224 Y99.362 E3.728
G1 X104.27 Y100.101 E3.79533
G1 X104.187 Y100.848 E3.86367
G1 X103.994 Y101.502 E3.92567
G1 X103.651 Y102.214 E3.99753
;WIDTH:0.7482
G1 X103.435 Y102.547 E4.03641
;WIDTH:0.796401
G1 X103.22 Y102.88 E4.07801
;WIDTH:0.837326
G1 X102.662 Y103.428 E4.16475
G1 X102.457 Y103.533 E4.1903
;WIDTH:0.79155
G1 X102.251 Y103.639 E4.21445
;WIDTH:0.745775
G1 X102.046 Y103.745 E4.23697
;WIDTH:0.7
G1 X101.323 Y104.06 E4.30868
G1 X100.773 Y104.201 E4.36031
G1 X100.187 Y104.268 E4.41394
G1 X99.432 Y104.234 E4.48266
G1 X98.982 Y104.133 E4.5246
G1 X98.982 Y104.133 F7800
G1 X99.102 Y103.522
;TYPE:External perimeter
G1 F1800
G1 X98.943 Y103.484 E4.53946
G1 X98.277 Y103.213 E4.60484
G1 X97.717 Y102.846 E4.66572
G1 X97.432 Y102.592 E4.70043
G1 X97.05 Y102.147 E4.75376
G1 X96.711 Y101.581 E4.81375
G1 X96.484 Y100.975 E4.87259
G1 X96.381 Y100.428 E4.9232
G1 X96.364 Y99.815 E4.97896
G1 X96.474 Y99.062 E5.04816
G1 X96.695 Y98.455 E5.1069
G1 X97.009 Y97.911 E5.16401
G1 X97.357 Y97.499 E5.21305
G1 X97.717 Y97.154 E5.25839
G1 X98.205 Y96.823 E5.31201
G1 X98.793 Y96.557 E5.37069
G1 X99.418 Y96.398 E5.42933
G1 X100.062 Y96.352 E5.48804
G1 X100.687 Y96.416 E5.54517
G1 X101.217 Y96.571 E5.59538
G1 X101.653 Y96.747 E5.63813
G1 X102.167 Y97.065 E5.69309
G1 X102.614 Y97.46 E5.74733
G1 X103.042 Y97.985 E5.80892
G1 X103.215 Y98.274 E5.83955
G1 X103.469 Y98.869 E5.89838
G1 X103.614 Y99.498 E5.95707
G1 X103.645 Y100.128 E6.01442
G1 X103.568 Y100.766 E6.07285
G1 X103.399 Y101.313 E6.12491
G1 X103.098 Y101.923 E6.18676
G1 X102.688 Y102.467 E6.2487
G1 X102.2 Y102.911 E6.30869
G1 X101.719 Y103.212 E6.36028
G1 X101.093 Y103.479 E6.42216
G1 X100.563 Y103.596 E6.47151
G1 X100.061 Y103.648 E6.5174
G1 X99.472 Y103.61 E6.57107
G1 X99.16 Y103.536 E6.60023
G1 X98.78 Y103.413 F7800
G1 X98.745 Y104.719
;TYPE:Perimeter
G1 F1800
G1 X98.642 Y104.697 E6.60981
G1 X98.265 Y104.578 E6.64576
G1 X97.743 Y104.343 E6.69781
G1 X97.988 Y104.86 E6.74983
G1 X98.121 Y105.216 E6.78439
G1 X98.333 Y106.076 E6.86493
G1 X98.385 Y106.585 E6.91145
G1 X98.394 Y107.237 E6.97074
G1 X98.315 Y107.873 E7.02902
G1 X98.186 Y108.39 E7.07747
G1 X98.017 Y108.9 E7.12632
G1 X97.754 Y109.46 E7.18258
G1 X97.43 Y109.964 E7.23706
G1 X97.07 Y110.428 E7.29046
G1 X96.431 Y111.041 E7.37098
G1 X95.665 Y111.564 E7.45532
G1 X94.895 Y111.912 E7.53215
G1 X94.57 Y112.016 E7.56318
G1 X93.702 Y112.192 E7.64371
G1 X92.773 Y112.224 E7.72823
G1 X92.241 Y112.147 E7.77711
G1 X91.571 Y112.009 E7.83931
;WIDTH:0.74203
G1 X91.502 Y112.008 E7.84601
;WIDTH:0.784061
G1 X91.434 Y112.007 E7.85303
;WIDTH:0.826092
G1 X91.366 Y112.006 E7.86046
;WIDTH:0.868123
G1 X91.297 Y112.005 E7.86842
;WIDTH:0.910154
G1 X91.229 Y112.004 E7.87668
;WIDTH:0.952185
G1 X91.16 Y112.004 E7.88549
;WIDTH:0.985232
G1 X90.335 Y111.629 E8.00551
G1 X90.281 Y111.565 E8.0166
;WIDTH:0.937693
G1 X90.227 Y111.501 E8.02711
;WIDTH:0.890154
G1 X90.173 Y111.436 E8.03713
;WIDTH:0.842616
G1 X90.119 Y111.372 E8.04648
;WIDTH:0.795077
G1 X90.065 Y111.308 E8.05525
;WIDTH:0.747538
G1 X90.011 Y111.243 E8.06352
;WIDTH:0.716818
G1 X89.373 Y110.732 E8.13985
;WIDTH:0.763932
G1 X89.261 Y110.657 E8.15336
;WIDTH:0.811047
G1 X89.15 Y110.582 E8.16771
;WIDTH:0.832639
G1 X88.544 Y109.801 E8.27668
;WIDTH:0.859258
G1 X88.339 Y109.494 E8.3188
G1 X88.291 Y109.345 E8.33666
;WIDTH:0.819443
G1 X88.243 Y109.197 E8.35351
;WIDTH:0.779629
G1 X88.195 Y109.049 E8.36946
;WIDTH:0.739814
G1 X88.147 Y108.9 E8.3846
;WIDTH:0.7
G1 X88.043 Y108.607 E8.41287
G1 X87.831 Y107.748 E8.49332
G1 X87.776 Y107.159 E8.54711
G1 X87.781 Y106.505 E8.60658
G1 X87.927 Y105.612 E8.68886
G1 X88.148 Y104.942 E8.75301
G1 X88.369 Y104.451 E8.80197
G1 X88.843 Y103.702 E8.88257
G1 X89.356 Y103.123 E8.95291
G1 X89.879 Y102.673 E9.01565
G1 X90.342 Y102.351 E9.06693
G1 X90.869 Y102.073 E9.12111
G1 X91.405 Y101.872 E9.17316
G1 X91.937 Y101.715 E9.2236
G1 X92.547 Y101.618 E9.27976
G1 X93.427 Y101.623 E9.35978
G1 X94.008 Y101.67 E9.41278
G1 X94.539 Y101.8 E9.46249
G1 X94.95 Y101.934 E9.5018
G1 X95.671 Y102.277 E9.5744
G1 X95.365 Y101.555 E9.6457
G1 X95.24 Y101.143 E9.68485
G1 X95.138 Y100.578 E9.73706
G1 X95.114 Y100.004 E9.7893
G1 X95.134 Y99.449 E9.8398
G1 X95.244 Y98.839 E9.89616
G1 X95.41 Y98.323 E9.94545
G1 X95.66 Y97.739 E10.00321
G1 X95.077 Y98.017 E10.06194
G1 X94.544 Y98.18 E10.11262
G1 X93.924 Y98.333 E10.17069
G1 X93.426 Y98.385 E10.21622
G1 X92.804 Y98.398 E10.27279
G1 X91.943 Y98.263 E10.35204
G1 X91.482 Y98.155 E10.39509
G1 X90.904 Y97.934 E10.45136
G1 X90.432 Y97.684 E10.49993
G1 X89.978 Y97.399 E10.54867
G1 X89.498 Y97.01 E10.60485
G1 X88.903 Y96.367 E10.68451
G1 X88.494 Y95.722 E10.75396
G1 X88.15 Y95.064 E10.82147
G1 X87.954 Y94.478 E10.87766
G1 X87.849 Y93.961 E10.92563
G1 X87.776 Y93.307 E10.98547
G1 X87.812 Y92.422 E11.06601
;WIDTH:0.716369
G1 X87.996 Y91.511 E11.15273
;WIDTH:0.763532
G1 X87.996 Y91.441 E11.15974
;WIDTH:0.810695
G1 X87.996 Y91.371 E11.16723
;WIDTH:0.857859
G1 X87.996 Y91.3 E11.17532
;WIDTH:0.905022
G1 X87.996 Y91.23 E11.18377
;WIDTH:0.952186
G1 X87.996 Y91.16 E11.1927
;WIDTH:0.985231
G1 X88.371 Y90.335 E11.31272
G1 X88.435 Y90.281 E11.32381
;WIDTH:0.937692
G1 X88.499 Y90.227 E11.33432
;WIDTH:0.890154
G1 X88.564 Y90.173 E11.34434
;WIDTH:0.842615
G1 X88.628 Y90.119 E11.35369
;WIDTH:0.795077
G1 X88.692 Y90.065 E11.36246
;WIDTH:0.747538
G1 X88.757 Y90.011 E11.37073
;WIDTH:0.716818
G1 X89.268 Y89.373 E11.44706
;WIDTH:0.763932
G1 X89.343 Y89.261 E11.46057
;WIDTH:0.811047
G1 X89.418 Y89.15 E11.47492
;WIDTH:0.832639
G1 X90.199 Y88.544 E11.58389
;WIDTH:0.859259
G1 X90.506 Y88.339 E11.62601
G1 X90.655 Y88.291 E11.64387
;WIDTH:0.819444
G1 X90.803 Y88.243 E11.66072
;WIDTH:0.779629
G1 X90.951 Y88.195 E11.67667
;WIDTH:0.739814
G1 X91.1 Y88.147 E11.69181
;WIDTH:0.7
G1 X92.252 Y87.831 E11.80043
G1 X92.841 Y87.776 E11.85422
G1 X93.495 Y87.781 E11.91369
G1 X94.388 Y87.927 E11.99597
G1 X95.058 Y88.148 E12.06012
G1 X95.549 Y88.369 E12.10908
G1 X96.298 Y88.843 E12.18968
G1 X96.877 Y89.356 E12.26002
G1 X97.327 Y89.879 E12.32276
G1 X97.649 Y90.342 E12.37404
G1 X97.927 Y90.869 E12.42822
G1 X98.128 Y91.405 E12.48027
G1 X98.285 Y91.937 E12.53071
G1 X98.382 Y92.547 E12.58687
G1 X98.377 Y93.416 E12.66589
G1 X98.34 Y93.959 E12.71538
G1 X98.172 Y94.652 E12.78022
G1 X97.736 Y95.644 E12.87875
G1 X98.285 Y95.415 E12.93284
G1 X98.787 Y95.266 E12.98045
G1 X99.299 Y95.151 E13.02817
G1 X99.982 Y95.105 E13.09042
G1 X100.593 Y95.148 E13.14612
G1 X101.313 Y95.281 E13.2127
G1 X102.246 Y95.636 E13.30347
G1 X101.983 Y95.077 E13.35964
G1 X101.794 Y94.441 E13.41997
G1 X101.667 Y93.924 E13.46838
G1 X101.615 Y93.415 E13.5149
G1 X101.602 Y92.804 E13.57047
G1 X101.737 Y91.943 E13.64972
G1 X101.845 Y91.482 E13.69277
G1 X102.066 Y90.904 E13.74904
G1 X102.316 Y90.432 E13.79761
G1 X102.601 Y89.978 E13.84635
G1 X102.99 Y89.498 E13.90253
G1 X103.633 Y88.903 E13.98219
G1 X104.278 Y88.494 E14.05164
G1 X104.936 Y88.15 E14.11915
G1 X105.522 Y87.954 E14.17534
G1 X106.039 Y87.849 E14.22331
G1 X106.693 Y87.776 E14.28315
G1 X107.578 Y87.812 E14.36369
G1 X108.487 Y88.004 E14.44817
;WIDTH:0.74203
G1 X108.546 Y88.003 E14.4539
;WIDTH:0.784061
G1 X108.605 Y88.001 E14.45999
;WIDTH:0.826092
G1 X108.664 Y88 E14.46644
;WIDTH:0.868123
G1 X108.722 Y87.999 E14.47313
;WIDTH:0.910154
G1 X108.781 Y87.998 E14.4803
;WIDTH:0.952185
G1 X108.84 Y87.996 E14.48783
;WIDTH:0.957709
G1 X109.443 Y88.281 E14.57349
G1 X109.523 Y88.351 E14.58714
;WIDTH:0.914757
G1 X109.602 Y88.421 E14.60004
;WIDTH:0.871806
G1 X109.682 Y88.491 E14.61236
;WIDTH:0.828854
G1 X109.762 Y88.561 E14.62402
;WIDTH:0.785903
G1 X109.841 Y88.631 E14.63494
;WIDTH:0.742951
G1 X109.921 Y88.701 E14.64527
;WIDTH:0.747407
G1 X110.637 Y89.256 E14.73389
;WIDTH:0.784512
G1 X110.719 Y89.307 E14.74386
;WIDTH:0.821618
G1 X110.802 Y89.357 E14.75439
;WIDTH:0.832638
G1 X111.456 Y90.199 E14.87191
;WIDTH:0.848001
G1 X111.616 Y90.429 E14.90342
G1 X111.695 Y90.652 E14.93003
;WIDTH:0.798667
G1 X111.774 Y90.876 E14.95504
;WIDTH:0.749333
G1 X111.853 Y91.1 E14.97834
;WIDTH:0.7
G1 X112.169 Y92.252 E15.08696
G1 X112.224 Y92.841 E15.14075
G1 X112.227 Y93.436 E15.19485
G1 X112.151 Y94.05 E15.25111
G1 X111.941 Y94.845 E15.32588
G1 X111.589 Y95.636 E15.40461
G1 X111.108 Y96.368 E15.48425
G1 X110.719 Y96.784 E15.53604
G1 X110.267 Y97.218 E15.59302
G1 X109.718 Y97.603 E15.65399
G1 X109.271 Y97.86 E15.70087
G1 X108.702 Y98.101 E15.75706
G1 X108.143 Y98.246 E15.80957
G1 X107.538 Y98.369 E15.86571
G1 X106.936 Y98.4 E15.92052
G1 X106.294 Y98.368 E15.97897
G1 X105.407 Y98.186 E16.0613
G1 X104.986 Y98.035 E16.10197
G1 X104.336 Y97.726 E16.16741
G1 X104.621 Y98.384 E16.23261
G1 X104.834 Y99.226 E16.31158
G1 X104.894 Y100.075 E16.38897
G1 X104.806 Y100.931 E16.46722
G1 X104.59 Y101.691 E16.53906
G1 X104.329 Y102.268 E16.59664
G1 X104.858 Y102.014 E16.65
G1 X105.353 Y101.845 E16.69756
G1 X106.076 Y101.667 E16.76527
G1 X106.675 Y101.611 E16.81997
G1 X107.242 Y101.606 E16.87153
G1 X108.212 Y101.762 E16.96087
G1 X108.767 Y101.94 E17.01387
G1 X109.319 Y102.172 E17.06832
G1 X109.818 Y102.461 E17.12075
G1 X110.278 Y102.809 E17.1732
G1 X110.688 Y103.169 E17.22281
G1 X111.097 Y103.633 E17.27905
G1 X111.506 Y104.278 E17.3485
G1 X111.85 Y104.936 E17.41601
G1 X112.046 Y105.522 E17.4722
G1 X112.151 Y106.039 E17.52017
G1 X112.224 Y106.693 E17.58001
G1 X112.188 Y107.578 E17.66055
G1 X111.996 Y108.487 E17.74503
;WIDTH:0.74203
G1 X111.997 Y108.546 E17.75076
;WIDTH:0.784061
G1 X111.999 Y108.605 E17.75685
;WIDTH:0.826092
G1 X112 Y108.664 E17.7633
;WIDTH:0.868123
G1 X112.001 Y108.722 E17.76999
;WIDTH:0.910154
G1 X112.002 Y108.781 E17.77716
;WIDTH:0.952185
G1 X112.004 Y108.84 E17.78469
;WIDTH:0.957709
G1 X111.719 Y109.443 E17.87035
G1 X111.649 Y109.523 E17.884
;WIDTH:0.914757
G1 X111.579 Y109.602 E17.8969
;WIDTH:0.871806
G1 X111.509 Y109.682 E17.90922
;WIDTH:0.828854
G1 X111.439 Y109.762 E17.92088
;WIDTH:0.785903
G1 X111.369 Y109.841 E17.9318
;WIDTH:0.742951
G1 X111.299 Y109.921 E17.94213
;WIDTH:0.747407
G1 X110.744 Y110.637 E18.03075
;WIDTH:0.784512
G1 X110.693 Y110.719 E18.04072
;WIDTH:0.821618
G1 X110.643 Y110.802 E18.05125
;WIDTH:0.832638
G1 X109.801 Y111.456 E18.16877
;WIDTH:0.848001
G1 X109.571 Y111.616 E18.20028
G1 X109.348 Y111.695 E18.22689
;WIDTH:0.798667
G1 X109.124 Y111.774 E18.2519
;WIDTH:0.749333
G1 X108.9 Y111.853 E18.2752
;WIDTH:0.7
G1 X107.748 Y112.169 E18.38382
G1 X107.159 Y112.224 E18.43761
G1 X106.505 Y112.219 E18.49708
G1 X105.612 Y112.073 E18.57936
G1 X104.942 Y111.852 E18.64351
G1 X104.451 Y111.631 E18.69247
G1 X103.702 Y111.157 E18.77307
G1 X103.123 Y110.644 E18.84341
G1 X102.65 Y110.09 E18.90965
G1 X102.351 Y109.658 E18.95742
G1 X102.073 Y109.131 E19.0116
G1 X101.87 Y108.59 E19.06414
G1 X101.715 Y108.063 E19.11409
G1 X101.618 Y107.453 E19.17025
G1 X101.623 Y106.584 E19.24927
G1 X101.68 Y105.949 E19.30724
G1 X101.828 Y105.348 E19.36352
G1 X102.275 Y104.334 E19.46428
G1 X101.552 Y104.642 E19.53574
G1 X101.047 Y104.785 E19.58346
G1 X100.257 Y104.889 E19.65591
G1 X99.392 Y104.858 E19.73461
G1 X98.804 Y104.732 E19.78929
G1 E17.78929 F2400
G92 E0
G1 X98.804 Y104.732 F7800
G1 X103.161 Y104.04
G1 E2 F2400
;WIDTH:0.837326
G1 F1800
G1 X103.212 Y103.953 E2.01119
G1 X103.543 Y103.578 E2.06667
;WIDTH:0.798425
G1 X103.596 Y103.523 E2.07471
;WIDTH:0.792339
G1 X103.914 Y103.305 E2.11495
;WIDTH:0.746169
G1 X104.233 Y103.086 E2.15273
;WIDTH:0.7
G1 X104.631 Y102.812 E2.19667
G1 X105.19 Y102.548 E2.25288
G1 X105.873 Y102.361 E2.31727
G1 X106.411 Y102.247 E2.36728
G1 X107.028 Y102.222 E2.42343
G1 X108.111 Y102.379 E2.52294
G1 X108.872 Y102.65 E2.59639
G1 X109.506 Y103.002 E2.66233
G1 X110.108 Y103.475 E2.73195
G1 X110.629 Y104.046 E2.80224
G1 X110.965 Y104.59 E2.86038
G1 X111.257 Y105.135 E2.9166
G1 X111.454 Y105.72 E2.97273
G1 X111.554 Y106.266 E3.0232
G1 X111.599 Y106.667 E3.05989
G1 X111.563 Y107.552 E3.14043
G1 X111.389 Y108.338 E3.21363
G1 X111.039 Y109.119 E3.29145
G1 X110.816 Y109.525 E3.33357
G1 X110.242 Y110.226 E3.41595
G1 X109.386 Y110.903 E3.51519
G1 X108.634 Y111.288 E3.59201
G1 X107.598 Y111.562 E3.68945
G1 X106.795 Y111.614 E3.76262
G1 X105.884 Y111.484 E3.8463
G1 X105.529 Y111.407 E3.87933
G1 X104.951 Y111.186 E3.9356
G1 X104.037 Y110.629 E4.03293
